<?xml version="1.0" encoding="UTF-8"?>
<map version="1.10" tiledversion="1.11.2" orientation="orthogonal" renderorder="right-down" width="120" height="96" tilewidth="32" tileheight="32" infinite="0" nextlayerid="12" nextobjectid="100">
 <tileset firstgid="1" source="assets/miscellaneous/recif.tsx"/>
 <tileset firstgid="2" source="assets/entity/bullet.tsx"/>
 <tileset firstgid="3" source="assets/Green_team/Green_team_spritesheet.tsx"/>
 <tileset firstgid="11" source="assets/Red_team/red_team_spritesheet.tsx"/>
 <tileset firstgid="19" source="assets/miscellaneous/meteorite.tsx"/>
 <tileset firstgid="68" source="assets/deep_water/deep_water_spritesheet.tsx"/>
 <tileset firstgid="324" source="assets/water/water_spritesheet.tsx"/>
 <tileset firstgid="580" source="assets/island/island_spritesheet.tsx"/>
 <tileset firstgid="836" source="assets/Green_team/green_base.tsx"/>
 <tileset firstgid="885" source="assets/Red_team/red_base.tsx"/>
 <tileset firstgid="934" source="assets/miscellaneous/fog.tsx"/>
 <layer id="4" name="Maree_Haute" width="120" height="96">
  <data encoding="csv">
1,1,1,1,1,1,1,1,1,1,1,1,1,1,1,1,1,1,1,1,1,1,1,1,1,1,1,1,1,1,1,1,1,1,1,1,1,1,1,1,1,1,1,1,1,1,1,1,1,1,1,1,1,1,1,1,1,1,1,1,1,1,1,1,1,1,1,1,1,1,1,1,1,1,1,1,1,1,1,1,1,1,1,1,1,1,1,1,1,1,1,1,1,1,1,1,1,1,1,1,1,1,1,1,1,1,1,1,1,1,1,1,1,1,1,1,1,1,1,1,
1,85,85,85,85,85,85,85,85,85,85,85,85,85,85,85,85,85,85,85,85,85,85,85,85,85,85,85,85,85,85,85,85,85,85,85,85,85,85,85,85,85,85,85,85,85,85,85,85,85,85,85,85,85,85,85,85,85,85,85,85,85,85,85,85,85,85,85,85,85,85,85,85,85,85,85,85,85,85,85,85,85,85,85,85,85,85,85,85,85,85,85,85,85,85,85,85,85,85,85,85,85,85,85,85,85,85,85,85,85,85,85,85,85,85,85,85,85,85,1,
1,85,85,85,85,85,85,85,85,85,85,85,85,85,85,85,85,85,85,85,85,85,85,85,85,85,85,85,85,85,85,85,85,85,85,85,85,85,85,0,0,0,0,0,0,0,0,0,0,0,0,0,0,0,0,0,0,0,0,0,0,0,0,0,0,0,0,0,0,0,0,0,0,0,0,0,0,0,85,85,85,85,85,85,85,85,85,85,85,85,85,85,85,116,101,101,101,101,101,101,101,101,101,101,101,117,85,85,85,85,85,85,85,85,85,85,85,85,85,1,
1,85,85,85,85,85,85,85,85,85,85,85,85,85,85,85,85,85,85,85,85,85,85,85,85,85,85,85,85,85,85,85,85,85,85,85,85,85,85,0,0,0,0,0,0,0,0,0,0,0,0,0,0,0,0,0,0,0,0,0,0,0,0,0,0,0,0,0,0,0,0,0,0,0,0,0,0,0,85,85,85,85,85,85,85,85,85,85,85,85,116,101,101,102,341,341,341,341,341,341,341,341,341,341,341,100,101,117,85,85,85,85,85,85,85,85,85,85,85,1,
1,85,85,85,85,85,85,85,85,85,85,85,85,85,85,85,85,85,85,85,85,85,85,85,85,85,85,85,85,85,85,85,85,85,85,85,85,85,85,0,0,0,0,0,0,0,0,0,0,0,0,0,0,0,0,0,0,0,0,0,0,0,0,0,0,0,0,0,0,0,0,0,0,0,0,0,0,0,85,85,85,85,85,85,85,85,85,85,116,101,102,341,341,341,341,341,341,341,341,341,341,341,341,341,341,341,341,100,101,117,85,85,85,85,85,85,85,85,85,1,
1,85,85,85,85,85,85,85,85,85,85,85,85,85,85,85,85,85,85,85,85,85,85,85,85,85,85,85,85,85,85,85,85,85,85,85,85,85,85,0,0,0,0,0,0,0,0,0,0,0,0,0,0,0,0,0,0,0,0,0,0,0,0,0,0,0,0,0,0,0,0,0,0,0,0,0,0,0,85,85,85,85,85,85,85,85,85,116,102,341,341,341,341,341,341,341,341,341,341,341,341,341,341,341,341,341,341,341,341,84,85,85,85,85,85,85,85,85,85,1,
1,85,85,85,85,85,85,85,85,85,85,85,85,85,85,85,85,85,85,85,85,85,85,85,85,85,85,85,85,85,85,85,85,85,85,85,85,85,85,0,0,0,0,0,0,0,0,0,0,0,0,0,0,0,0,0,0,0,0,0,0,0,0,0,0,0,0,0,0,0,0,0,0,0,0,0,0,0,85,85,85,85,85,85,85,85,85,102,341,341,341,341,341,341,341,341,341,341,341,341,341,341,341,341,341,341,341,341,341,84,85,85,85,85,85,85,85,85,85,1,
1,85,85,85,85,85,85,85,85,85,116,101,101,101,101,101,101,101,101,101,101,101,101,117,85,85,85,85,85,85,85,85,85,85,85,85,85,85,85,0,0,0,0,0,0,0,0,0,0,0,0,0,0,0,0,0,0,0,0,0,0,0,0,0,0,0,0,0,0,0,0,0,0,0,0,0,0,0,85,85,85,85,85,85,85,85,86,341,341,341,341,341,580,581,581,581,581,581,581,581,581,581,581,581,581,582,341,341,341,84,85,85,85,85,85,85,85,85,85,1,
1,85,85,85,85,85,85,85,116,101,102,341,341,341,341,341,341,341,341,341,341,341,341,100,101,101,117,85,85,85,85,85,85,85,85,85,85,85,85,0,0,0,0,0,0,0,0,0,0,0,0,0,0,0,0,0,0,0,0,0,0,0,0,0,0,0,0,0,0,0,0,0,0,0,0,0,0,0,85,85,85,85,85,85,85,85,86,341,341,341,341,341,596,597,597,597,597,597,597,597,597,597,597,597,597,598,341,341,341,84,85,85,85,85,85,85,85,85,85,1,
1,85,85,85,85,85,85,85,86,341,341,341,341,341,341,341,341,341,341,341,341,341,341,341,341,341,100,117,85,85,85,85,85,85,85,85,85,85,85,0,0,0,0,0,0,0,0,0,0,0,0,0,0,0,0,0,0,0,0,0,0,0,0,0,0,0,0,0,0,0,0,0,0,0,0,0,0,0,85,85,85,85,85,85,85,85,86,341,341,341,341,341,596,597,3221226117,613,613,1610613381,597,597,3221226117,613,613,1610613381,597,598,341,341,341,100,117,85,85,85,85,85,85,85,85,1,
1,85,85,85,85,85,85,116,102,341,341,580,581,582,341,341,580,581,582,341,341,580,581,582,341,341,341,84,85,85,85,85,85,85,85,85,85,85,85,0,0,0,0,0,0,0,0,0,0,0,0,0,0,0,0,0,0,0,0,0,0,0,0,0,0,0,0,0,0,0,0,0,0,0,0,0,0,0,85,85,85,85,85,85,85,85,86,341,341,341,341,341,596,597,598,341,341,596,597,597,598,341,341,596,597,598,341,341,341,341,84,85,85,85,85,85,85,85,85,1,
1,85,85,85,85,85,85,86,341,341,341,596,597,2684355205,581,581,645,597,2684355205,581,581,645,597,598,341,341,341,84,85,85,85,85,85,85,85,85,85,85,85,0,0,0,0,0,0,0,0,0,0,0,0,0,0,0,0,0,0,0,0,0,0,0,0,0,0,0,0,0,0,0,0,0,0,0,0,0,0,0,85,85,85,85,85,85,85,85,86,341,341,341,341,341,596,597,598,341,341,596,597,597,598,341,341,596,597,598,341,341,341,341,84,85,85,85,85,85,85,85,85,1,
1,85,85,85,85,85,85,86,341,341,341,596,597,597,597,597,597,597,597,597,597,597,628,614,341,341,341,84,85,85,85,85,85,85,85,85,85,85,85,0,0,0,0,0,0,0,0,0,0,0,0,0,0,0,0,0,0,0,0,0,0,0,0,0,0,0,0,0,0,0,0,0,0,0,0,0,0,0,85,85,85,85,85,85,85,85,86,341,341,341,341,341,596,597,2684355205,581,581,584,613,613,600,581,581,645,597,598,341,341,341,341,84,85,85,85,85,85,85,85,85,1,
1,85,85,85,85,85,85,86,341,341,341,596,597,597,597,597,597,597,597,597,597,3221226117,614,341,341,341,68,133,85,85,85,85,85,85,85,85,85,85,85,0,0,0,0,0,0,0,0,0,0,0,0,0,0,0,0,0,0,0,0,0,0,0,0,0,0,0,0,0,0,0,0,0,0,0,0,0,0,0,85,85,85,85,85,85,85,85,86,341,341,341,341,341,596,597,597,597,2684355204,614,341,341,612,3221226116,597,597,597,598,341,341,341,341,84,85,85,85,85,85,85,85,85,1,
1,85,85,85,85,85,85,86,341,341,341,612,613,1610613381,597,597,597,597,597,597,597,598,341,341,341,341,84,85,85,85,85,85,85,85,85,85,85,85,85,0,0,0,0,0,0,0,0,0,0,0,0,0,0,0,0,0,0,0,0,0,0,0,0,0,0,0,0,0,0,0,0,0,0,0,0,0,0,0,85,85,85,85,85,85,85,85,132,70,341,341,341,341,596,597,597,597,598,341,341,341,341,596,597,597,597,598,341,341,341,341,100,117,85,85,85,85,85,85,85,1,
1,85,85,85,85,85,85,86,341,341,341,341,341,612,613,1610613381,597,597,597,597,597,2684355205,582,341,341,341,84,85,85,85,85,85,85,85,85,85,85,85,85,0,0,0,0,0,0,0,0,0,0,0,0,0,0,0,0,0,0,0,0,0,0,0,0,0,0,0,0,0,0,0,0,0,0,0,0,0,0,0,85,85,85,85,85,85,85,85,85,86,341,341,341,341,596,597,597,597,598,341,580,582,341,596,597,597,597,598,341,341,341,341,341,84,85,85,85,85,85,85,85,1,
1,85,85,85,85,85,85,132,70,341,341,341,341,341,341,596,597,597,597,597,597,597,2684355205,582,341,341,84,85,85,85,85,85,85,85,85,85,85,85,85,0,0,0,0,0,0,0,0,0,0,0,0,0,0,0,0,0,0,0,0,0,0,0,0,0,0,0,0,0,0,0,0,0,0,0,0,0,0,0,85,85,85,85,85,85,85,85,85,86,341,341,341,341,596,597,597,597,598,341,596,598,341,596,597,597,597,598,341,341,341,341,341,84,85,85,85,85,85,85,85,1,
1,85,85,85,85,85,85,85,86,341,341,341,341,341,341,596,597,597,597,597,597,597,597,598,341,341,84,85,85,85,85,85,85,85,85,85,85,85,85,0,0,0,0,0,0,0,0,0,0,0,0,0,0,0,0,0,0,0,0,0,0,0,0,0,0,0,0,0,0,0,0,0,0,0,0,0,0,0,85,85,85,85,85,85,85,85,85,86,341,341,341,341,596,597,597,597,2684355205,581,645,2684355205,581,645,597,597,597,598,341,341,341,341,341,84,85,85,85,85,85,85,85,1,
1,85,85,85,85,85,85,85,86,341,341,580,581,581,581,645,597,597,597,597,597,597,597,598,341,341,84,85,85,85,85,85,85,85,85,85,85,85,85,0,0,0,0,0,0,0,0,0,0,0,0,0,0,0,0,0,0,0,0,0,0,0,0,0,0,0,0,0,0,0,0,0,0,0,0,0,0,0,85,85,85,85,85,85,85,85,85,86,341,341,341,341,596,597,597,597,597,597,597,597,597,597,597,597,597,598,341,341,341,341,341,84,85,85,85,85,85,85,85,1,
1,85,85,85,85,85,85,85,86,341,341,596,597,597,597,597,3221226117,613,613,1610613381,597,597,597,598,341,341,84,85,85,85,85,85,85,85,85,85,85,85,85,0,0,0,0,0,0,0,0,0,0,0,0,0,0,0,0,0,0,0,0,0,0,0,0,0,0,0,0,0,0,0,0,0,0,0,0,0,0,0,85,85,85,85,85,85,85,85,85,132,70,341,341,341,612,613,613,613,613,613,613,613,613,613,613,613,613,614,341,341,341,341,341,84,85,85,85,85,85,85,85,1,
1,85,85,85,85,85,85,85,86,341,341,612,1610613381,597,597,3221226117,614,341,341,612,613,613,613,614,341,341,84,85,85,85,85,85,85,85,85,85,85,85,85,0,0,0,0,0,0,0,0,0,0,0,0,0,0,0,0,0,0,0,0,0,0,0,0,0,0,0,0,0,0,0,0,0,0,0,0,0,0,0,85,85,85,85,85,85,85,85,85,85,86,341,341,341,341,341,341,341,341,341,341,341,341,341,341,341,341,341,341,341,341,341,341,84,85,85,85,85,85,85,85,1,
1,85,85,85,85,85,85,85,132,70,341,341,612,613,613,614,341,341,341,341,341,341,341,341,341,68,133,85,85,85,85,85,85,85,85,85,85,85,85,0,0,0,0,0,0,0,0,0,0,0,0,0,0,0,0,0,0,0,0,0,0,0,0,0,0,0,0,0,0,0,0,0,0,0,0,0,0,0,85,85,85,85,85,85,85,85,85,85,132,70,341,341,341,341,341,341,341,341,341,341,341,341,341,341,341,341,341,341,341,341,68,133,85,85,85,85,85,85,85,1,
1,85,85,85,85,85,85,85,85,86,341,341,341,341,341,341,341,341,341,341,341,341,341,341,68,133,85,85,85,85,85,85,85,85,85,85,85,85,85,0,0,0,0,0,0,0,0,0,0,0,0,0,0,0,0,0,0,0,0,0,0,0,0,0,0,0,0,0,0,0,0,0,0,0,0,0,0,0,85,85,85,85,85,85,85,85,85,85,85,86,341,341,341,341,341,341,341,341,341,341,341,341,341,341,341,341,341,341,341,341,84,85,85,85,85,85,85,85,85,1,
1,85,85,85,85,85,85,85,85,132,70,341,341,341,341,341,341,341,341,341,341,68,69,69,133,85,85,85,85,85,85,85,85,85,85,85,85,85,85,0,0,0,0,0,0,0,0,0,0,0,0,0,0,0,0,0,0,0,0,0,0,0,0,0,0,0,0,0,0,0,0,0,0,0,0,0,0,0,85,85,85,85,85,85,85,85,85,85,85,132,70,341,341,341,341,341,341,341,341,341,341,341,341,341,341,341,341,341,68,69,133,85,85,85,85,85,85,85,85,1,
1,85,85,85,85,85,85,85,85,85,132,69,69,69,69,69,69,69,69,69,69,133,85,85,85,85,85,85,85,85,85,85,85,85,85,85,85,85,85,85,85,85,85,85,85,85,85,85,85,85,85,85,85,85,85,85,85,85,85,85,85,85,85,85,85,85,85,85,85,85,85,85,85,85,85,85,85,85,85,85,85,85,85,85,85,85,85,85,85,85,86,341,341,341,341,341,341,341,341,341,341,341,341,341,68,69,69,69,133,85,85,85,85,85,85,85,85,85,85,1,
1,85,85,85,85,85,85,85,85,85,85,85,85,85,85,85,85,85,85,85,85,85,85,85,85,85,85,85,85,85,85,85,85,85,85,85,85,85,85,85,85,85,85,85,85,85,85,85,85,85,85,85,85,85,85,85,85,85,85,85,85,85,85,85,85,85,85,85,85,85,85,85,85,85,85,85,85,85,85,85,85,85,85,85,85,85,85,85,85,85,132,69,69,70,341,341,341,68,69,69,69,69,69,69,133,85,85,85,85,85,85,85,85,85,85,85,85,85,85,1,
1,85,85,85,85,85,85,85,85,85,85,85,85,85,85,85,85,85,85,85,85,85,85,85,85,85,85,85,85,85,85,85,85,85,85,85,85,85,85,85,85,85,85,85,85,85,85,85,85,85,85,85,85,85,85,85,85,85,85,85,85,85,85,85,85,85,85,85,85,85,85,85,85,85,85,85,85,85,85,85,85,85,85,85,85,85,85,85,85,85,85,85,85,132,69,69,69,133,85,85,85,85,85,85,85,85,85,85,85,85,85,85,85,85,85,85,85,85,85,1,
1,85,85,85,85,85,85,85,85,85,85,85,85,85,85,85,85,85,85,85,85,85,85,85,85,85,85,85,85,85,85,85,85,85,85,85,85,85,85,85,85,85,85,85,85,85,85,85,85,85,85,85,85,85,85,85,85,85,85,85,85,85,85,85,85,85,85,85,85,85,85,85,85,85,85,85,85,85,85,85,85,85,85,85,85,85,85,85,85,85,85,85,85,85,85,85,85,85,85,85,85,85,85,85,85,85,85,85,85,85,85,85,85,85,85,85,85,85,85,1,
1,85,85,85,85,85,85,85,85,85,85,85,85,85,85,85,85,85,85,85,85,85,85,85,85,85,85,85,85,85,85,85,85,85,85,85,85,85,85,85,85,85,85,85,85,85,85,85,85,85,85,85,85,85,85,85,85,85,85,85,85,85,85,85,85,85,85,85,85,85,85,85,85,85,85,85,85,85,85,85,85,85,85,85,85,85,85,85,85,85,85,85,85,85,85,85,85,85,85,85,85,85,85,85,85,85,85,85,85,85,85,85,85,85,85,85,85,85,85,1,
1,85,85,85,85,85,85,85,85,85,85,85,85,85,85,85,85,85,85,85,85,85,85,85,85,85,85,85,85,85,85,85,85,85,85,85,85,85,85,85,85,85,85,85,85,85,85,85,85,85,85,85,85,85,85,85,85,85,85,85,85,85,85,85,85,85,85,85,85,85,85,85,85,85,85,85,85,85,85,85,85,85,85,85,85,85,85,85,85,85,85,85,85,85,85,85,85,85,85,85,85,85,85,85,85,85,85,85,85,85,85,85,85,85,85,85,85,85,85,1,
1,85,85,85,85,85,85,85,85,85,85,85,85,85,85,85,85,85,85,85,85,85,85,85,85,85,85,85,85,85,85,85,85,85,85,85,85,85,85,85,85,85,85,85,85,85,85,85,85,85,85,85,85,85,85,85,85,85,85,85,85,85,85,85,85,85,85,85,85,85,85,85,85,85,85,85,85,85,85,85,85,85,85,85,85,85,85,85,85,85,85,85,85,85,85,85,85,85,85,85,85,85,85,85,85,85,85,85,85,85,85,85,85,85,85,85,85,85,85,1,
1,85,85,85,85,85,85,85,85,85,85,85,85,85,85,85,85,85,85,85,85,85,85,85,85,85,85,85,85,85,85,85,85,85,85,85,85,85,85,85,85,85,85,85,85,85,85,85,116,101,101,101,101,101,101,101,101,101,101,101,101,101,101,101,101,101,101,101,101,101,101,117,85,85,85,85,85,85,85,85,85,85,85,85,85,85,85,85,85,85,85,85,85,85,85,85,85,85,85,85,85,85,85,85,85,85,85,85,85,85,85,85,85,85,85,85,85,85,85,1,
1,85,85,85,85,85,85,85,85,85,85,85,85,85,0,0,0,0,0,0,0,0,0,0,0,0,0,0,0,0,0,0,0,0,85,85,85,85,85,85,85,85,85,85,85,85,85,116,102,341,341,341,341,341,341,341,341,341,341,341,341,341,341,341,341,341,341,341,341,341,341,100,101,101,117,85,85,85,85,85,85,85,85,85,85,85,85,85,85,85,85,85,85,85,85,85,85,85,85,85,85,85,85,85,85,85,85,85,85,85,85,85,85,85,85,85,85,85,85,1,
1,85,85,85,85,85,85,85,85,85,85,85,85,85,0,0,0,0,0,0,0,0,0,0,0,0,0,0,0,0,0,0,0,0,85,85,85,85,85,85,85,85,85,85,85,85,85,86,341,341,341,341,341,341,341,341,341,341,341,341,341,341,341,341,341,341,341,341,341,341,341,341,341,341,84,85,85,85,85,85,85,85,85,85,85,85,85,85,85,85,85,85,85,85,85,85,85,85,85,85,85,85,85,85,85,85,85,85,85,85,85,85,85,85,85,85,85,85,85,1,
1,85,85,85,85,85,85,85,85,85,85,85,85,85,0,0,0,0,0,0,0,0,0,0,0,0,0,0,0,0,0,0,0,0,85,85,85,85,85,85,85,85,85,85,85,85,85,86,341,341,341,580,581,581,581,582,341,341,341,580,581,581,581,581,581,581,581,581,581,581,582,341,341,341,84,85,85,85,85,85,85,85,85,85,85,85,85,85,85,85,85,85,85,85,85,85,85,85,85,85,85,85,85,85,85,85,85,85,85,85,85,85,85,85,85,85,85,85,85,1,
1,85,85,85,85,85,85,85,85,85,85,85,85,85,0,0,0,0,0,0,0,0,0,0,0,0,0,0,0,0,0,0,0,0,85,85,85,85,85,85,85,85,85,85,85,85,85,86,341,341,341,1610613317,597,597,597,2684355205,581,581,581,645,597,597,597,597,597,597,597,597,597,597,598,341,341,341,84,85,85,85,85,85,85,85,85,85,85,85,85,85,85,85,85,85,85,85,85,85,85,85,85,85,85,85,85,85,85,85,85,85,85,85,85,85,85,85,85,85,85,85,85,1,
1,85,85,85,85,85,85,85,85,85,85,85,85,85,0,0,0,0,0,0,0,0,0,0,0,0,0,0,0,0,0,0,0,0,85,85,85,85,85,85,85,85,85,85,85,85,116,102,341,341,341,612,1610613381,597,597,597,597,597,597,597,597,597,597,597,597,3221226117,613,1610613381,597,597,598,341,341,341,100,117,85,85,85,85,85,85,85,85,85,85,85,85,85,85,85,85,85,85,85,85,85,85,85,85,85,85,85,85,85,85,85,85,85,85,85,85,85,85,85,85,85,85,85,1,
1,85,85,85,85,85,85,85,85,85,85,85,85,85,0,0,0,0,0,0,0,0,0,0,0,0,0,0,0,0,0,0,0,0,85,85,85,85,85,85,85,85,85,85,85,85,86,341,341,341,341,341,1610613317,597,597,597,597,597,597,597,597,597,597,597,597,1610613349,341,2684355173,597,597,598,341,341,341,341,84,85,85,85,85,85,85,85,85,85,85,85,85,85,85,85,85,85,85,85,85,85,85,85,85,85,85,85,85,85,85,85,85,85,85,85,85,85,85,85,85,85,85,85,1,
1,85,85,85,85,85,85,85,85,85,85,85,85,85,0,0,0,0,0,0,0,0,0,0,0,0,0,0,0,0,0,0,0,0,85,85,85,85,85,85,85,85,85,85,85,85,86,341,341,341,341,341,1610613317,597,597,597,597,597,597,597,597,597,597,597,597,2684355205,3221226085,645,597,3221226117,614,341,341,341,341,84,85,85,85,85,85,85,85,85,85,85,85,85,85,85,85,85,85,85,85,85,85,85,85,85,85,85,85,85,85,85,85,85,85,85,85,85,85,85,85,85,85,85,85,1,
1,85,85,85,85,85,85,85,85,85,85,85,85,85,0,0,0,0,0,0,0,0,0,0,0,0,0,0,0,0,0,0,0,0,85,85,85,85,85,85,85,85,85,85,85,116,102,341,341,341,341,580,645,597,597,597,597,19,20,21,22,23,24,25,597,597,597,597,3221226117,614,341,341,341,341,341,84,85,85,85,85,85,85,85,85,85,85,85,85,85,85,85,85,85,85,85,85,85,85,85,85,85,85,85,85,85,85,85,85,85,85,85,85,85,85,85,85,85,85,85,1,
1,85,85,85,85,85,85,85,85,85,85,85,85,85,0,0,0,0,0,0,0,0,0,0,0,0,0,0,0,0,0,0,0,0,85,85,85,85,85,85,85,85,85,85,85,86,341,341,341,341,341,1610613317,597,597,597,597,597,26,27,28,29,30,31,32,597,597,597,597,598,341,341,341,341,341,68,133,85,85,85,85,85,85,85,85,85,85,85,85,85,85,85,85,85,85,85,85,85,85,85,85,85,85,85,85,85,85,85,85,85,85,85,85,85,85,85,85,85,85,85,1,
1,85,85,85,85,85,85,85,85,85,85,85,85,85,0,0,0,0,0,0,0,0,0,0,0,0,0,0,0,0,0,0,0,0,85,85,85,85,85,85,85,85,85,85,85,86,341,341,341,341,341,1610613317,597,597,597,597,597,33,34,35,36,37,38,39,597,597,597,597,598,341,341,341,341,341,84,85,85,85,85,85,85,85,85,85,85,85,85,85,85,85,85,85,85,85,85,85,85,85,85,85,85,85,85,85,85,85,85,85,85,85,85,85,85,85,85,85,85,85,85,1,
1,85,85,85,85,85,85,85,85,85,85,85,85,85,0,0,0,0,0,0,0,0,0,0,0,0,0,0,0,0,0,0,0,0,85,85,85,85,85,85,85,85,85,85,85,86,341,341,341,341,341,1610613317,597,597,597,597,597,40,41,42,43,44,45,46,597,597,597,597,598,341,341,341,341,341,84,85,85,85,85,85,85,85,85,85,85,85,85,85,85,85,85,85,85,85,85,85,85,85,85,85,85,85,85,85,85,85,85,85,85,85,85,85,85,85,85,85,85,85,85,1,
1,885,886,887,888,889,890,891,85,85,85,85,85,85,0,0,0,0,0,0,0,0,0,0,0,0,0,0,0,0,0,0,0,0,85,85,85,85,85,85,85,85,85,85,85,86,341,341,341,341,341,1610613317,597,597,597,597,597,47,48,49,50,51,52,53,597,597,597,597,2684355205,582,341,341,341,341,84,85,85,85,85,85,85,85,85,85,85,85,85,85,85,85,85,85,85,85,85,85,85,85,85,85,85,85,85,85,85,85,85,85,85,85,85,85,836,837,838,839,840,841,842,1,
1,892,893,894,895,896,897,898,85,85,85,85,85,85,0,0,0,0,0,0,0,0,0,0,0,0,0,0,0,0,0,0,0,0,85,85,85,85,85,85,85,85,85,85,85,86,341,341,341,341,580,645,597,597,597,597,597,54,55,56,57,58,59,60,597,597,597,597,597,2684355141,341,341,341,341,84,85,85,85,85,85,85,85,85,85,85,85,934,934,934,934,934,934,934,934,934,934,934,934,934,934,934,934,934,85,85,85,85,85,85,85,85,85,843,844,845,846,847,848,849,1,
1,899,900,901,902,903,904,905,85,85,85,85,85,85,0,0,0,0,0,0,0,0,0,0,0,0,0,0,0,0,0,0,0,0,85,85,85,85,85,85,85,85,85,85,85,132,70,341,341,341,1610613317,597,597,597,597,597,597,61,62,63,64,65,66,67,597,597,597,597,597,2684355141,341,341,341,341,84,85,85,85,85,85,85,85,85,85,85,85,934,934,934,934,934,934,934,934,934,934,934,934,934,934,934,934,934,85,85,85,85,85,85,85,85,85,850,851,852,853,854,855,856,1,
1,906,907,908,909,910,911,912,85,85,85,85,85,85,0,0,0,0,0,0,0,0,0,0,0,0,0,0,0,0,0,0,0,0,85,85,85,85,85,85,85,85,85,85,85,85,86,341,341,341,612,1610613381,597,597,597,597,597,597,597,597,597,597,597,597,597,597,597,597,597,2684355205,582,341,341,341,84,85,85,85,85,85,85,85,85,85,85,85,934,934,934,934,934,934,934,934,934,934,934,934,934,934,934,934,934,85,85,85,85,85,85,85,85,85,857,858,859,860,861,862,863,1,
1,913,914,915,916,917,918,919,85,85,85,85,85,85,0,0,0,0,0,0,0,0,0,0,0,0,0,0,0,0,0,0,0,0,85,85,85,85,85,85,85,85,85,85,85,85,86,341,341,341,341,1610613317,597,597,597,597,597,597,597,597,597,597,597,597,597,597,597,597,597,597,598,341,341,341,84,85,85,85,85,85,85,85,85,85,85,85,934,934,934,934,934,934,934,934,934,934,934,934,934,934,934,934,934,85,85,85,85,85,85,85,85,85,864,865,866,867,868,869,870,1,
1,920,921,922,923,924,925,926,85,85,85,85,85,85,85,85,85,85,85,85,85,85,85,85,85,85,85,85,85,85,85,85,85,85,85,85,85,85,85,85,85,85,85,85,85,116,102,341,341,341,341,1610613317,597,597,597,3221226117,613,613,613,613,613,1610613381,597,597,597,597,597,597,597,597,598,341,341,341,84,85,85,85,85,85,85,85,85,85,85,85,934,934,934,934,934,934,934,934,934,934,934,934,934,934,934,934,934,85,85,85,85,85,85,85,85,85,871,872,873,874,875,876,877,1,
1,927,928,929,930,931,932,933,85,85,85,85,85,85,85,85,85,85,85,85,85,85,85,85,85,85,85,85,85,85,85,85,85,85,85,85,85,85,85,85,85,85,85,85,85,86,341,341,341,341,580,645,597,597,597,598,341,341,341,341,341,1610613317,597,597,597,597,597,597,597,597,598,341,341,341,84,85,85,85,85,85,85,85,85,85,85,85,934,934,934,934,934,934,934,934,934,934,934,934,934,934,934,934,934,85,85,85,85,85,85,85,85,85,878,879,880,881,882,883,884,1,
1,85,85,85,85,85,85,85,85,85,85,85,85,85,85,85,85,85,85,85,85,85,85,85,85,85,85,85,85,85,85,85,85,85,85,85,85,85,85,85,85,85,85,85,85,86,341,341,341,341,1610613317,597,597,597,597,598,341,341,341,341,580,645,597,3221226117,613,613,613,613,613,1610613381,598,341,341,341,84,85,85,85,85,85,85,85,85,85,85,85,934,934,934,934,934,934,934,934,934,934,934,934,934,934,934,934,934,85,85,85,85,85,85,85,85,85,85,85,85,85,85,85,85,1,
1,85,85,85,85,85,85,85,85,85,85,85,85,85,85,85,85,85,85,85,85,85,85,85,85,85,85,85,85,85,85,85,85,85,85,85,85,85,85,85,85,85,85,85,85,86,341,341,341,341,1610613317,597,597,597,597,2684355205,581,582,341,341,1610613317,597,597,598,341,341,341,341,341,596,598,341,341,341,84,85,85,85,85,85,85,85,85,85,85,85,934,934,934,934,934,934,934,934,934,934,934,934,934,934,934,934,934,85,85,85,85,85,85,85,85,85,85,85,85,85,85,85,85,1,
1,85,85,85,85,85,85,85,85,85,85,85,85,85,85,85,85,85,85,85,85,85,85,85,85,85,85,85,85,85,85,85,85,85,85,85,85,85,85,85,85,85,85,85,85,86,341,341,341,341,612,1610613381,597,597,597,597,597,598,341,341,1610613317,597,2684355157,2684355205,582,341,341,341,580,645,598,341,341,341,84,85,85,85,85,85,85,85,85,85,85,85,934,934,934,934,934,934,934,934,934,934,934,934,934,934,934,934,934,85,85,85,85,85,85,85,85,85,85,85,85,85,85,85,85,1,
1,85,85,85,85,85,85,85,85,85,85,85,85,85,85,85,85,85,85,85,85,85,85,85,85,85,85,85,85,85,85,85,85,85,85,85,85,85,85,85,85,85,85,85,85,132,70,341,341,341,341,612,613,613,613,613,613,614,341,341,612,613,613,613,614,341,341,341,612,613,614,341,341,341,84,85,85,85,85,85,85,85,85,85,85,85,934,934,934,934,934,934,934,934,934,934,934,934,934,934,934,934,934,85,85,85,85,85,85,85,85,85,85,85,85,85,85,85,85,1,
1,85,85,85,85,85,85,85,85,85,85,85,85,85,85,85,85,85,85,85,85,85,85,85,85,85,85,85,85,85,85,85,85,85,85,85,85,85,85,85,85,85,85,85,85,85,132,70,341,341,341,341,341,341,341,341,341,341,341,341,341,341,341,341,341,341,341,341,341,341,341,341,68,69,133,85,85,85,85,85,85,85,85,85,85,85,934,934,934,934,934,934,934,934,934,934,934,934,934,934,934,934,934,85,85,85,85,85,85,85,85,85,85,85,85,85,85,85,85,1,
1,85,85,85,85,85,85,85,85,85,85,85,85,85,85,85,85,85,85,85,85,85,85,85,85,85,85,85,85,85,85,85,85,85,85,85,85,85,85,85,85,85,85,85,85,85,85,132,70,341,341,341,341,341,341,341,341,341,341,341,341,341,341,341,341,341,341,341,341,341,68,69,133,85,85,85,85,85,85,85,85,85,85,85,85,85,934,934,934,934,934,934,934,934,934,934,934,934,934,934,934,934,934,85,85,85,85,85,85,85,85,85,85,85,85,85,85,85,85,1,
1,85,85,85,85,85,85,85,85,85,85,85,85,85,85,85,85,85,85,85,85,85,85,85,85,85,85,85,85,85,85,85,85,85,85,85,85,85,85,85,85,85,85,85,85,85,85,85,132,70,341,341,341,341,341,341,341,341,341,341,341,341,341,341,341,341,341,341,341,68,133,85,85,85,85,85,85,85,85,85,85,85,85,85,85,85,934,934,934,934,934,934,934,934,934,934,934,934,934,934,934,934,934,85,85,85,85,85,85,85,85,85,85,85,85,85,85,85,85,1,
1,85,85,85,85,85,85,85,85,85,85,85,85,85,85,85,85,85,85,85,85,85,85,85,85,85,85,85,85,85,85,85,85,85,85,85,85,85,85,85,85,85,85,85,85,85,85,85,85,132,70,341,341,341,341,341,341,341,341,341,341,341,341,341,341,341,68,69,69,133,85,85,85,85,85,85,85,85,85,85,85,85,85,85,85,85,85,85,85,85,85,85,85,85,85,85,85,85,85,85,85,85,85,85,85,85,85,85,85,85,85,85,85,85,85,85,85,85,85,1,
1,85,85,85,85,85,85,85,85,85,85,85,85,85,85,85,85,85,85,85,85,85,85,85,85,85,85,85,85,85,85,85,85,85,85,85,85,85,85,85,85,85,85,85,85,85,85,85,85,85,132,69,70,341,341,341,341,341,68,69,69,69,69,69,69,69,133,85,85,85,85,85,85,85,85,85,85,85,85,85,85,85,85,85,85,85,85,85,85,85,85,85,85,85,85,85,85,85,85,85,85,85,85,85,85,85,85,85,85,85,85,85,85,85,85,85,85,85,85,1,
1,85,85,85,85,85,85,85,85,85,85,85,85,85,85,85,85,85,85,85,85,85,85,85,85,85,85,85,85,85,85,85,85,85,85,85,85,85,85,85,85,85,85,85,85,85,85,85,85,85,85,85,132,69,69,69,69,69,133,85,85,85,85,85,85,85,85,85,85,85,85,85,85,85,85,85,85,85,85,85,85,85,85,85,85,85,85,85,85,85,85,85,85,85,85,85,85,85,85,85,85,85,85,85,85,85,85,85,85,85,85,85,85,85,85,85,85,85,85,1,
1,85,85,85,85,85,85,85,85,85,85,85,85,85,85,85,85,85,85,85,85,85,85,85,85,85,85,85,85,85,85,85,85,85,85,85,85,85,85,85,85,85,85,85,85,85,85,85,85,85,85,85,85,85,85,85,85,85,85,85,85,85,85,85,85,85,85,85,85,85,85,85,85,85,85,85,85,85,85,85,85,85,85,85,85,85,85,85,85,85,85,85,85,85,85,85,85,85,85,85,85,85,85,85,85,85,85,85,85,85,85,85,85,85,85,85,85,85,85,1,
1,85,85,85,85,85,85,85,85,85,85,85,85,85,85,85,85,85,85,85,85,85,85,85,85,85,85,85,85,85,85,85,85,85,85,85,85,85,85,85,85,85,85,85,85,85,85,85,85,85,85,85,85,85,85,85,85,85,85,85,85,85,85,85,85,85,85,85,85,85,85,85,85,85,85,85,85,85,85,85,85,85,85,85,85,85,85,85,85,85,85,85,85,85,85,85,85,85,85,85,85,85,85,85,85,85,85,85,85,85,85,85,85,85,85,85,85,85,85,1,
1,85,85,85,85,85,85,85,85,85,85,85,85,85,85,85,85,85,85,85,85,85,85,85,85,85,85,85,85,85,85,85,85,85,85,85,85,85,85,85,85,85,85,85,85,85,85,85,85,85,85,85,85,85,85,85,85,85,85,85,85,85,85,85,85,85,85,85,85,85,85,85,85,85,85,85,85,85,85,85,85,85,85,85,85,85,85,85,85,85,85,85,85,85,85,85,85,85,85,85,85,85,85,85,85,85,85,85,85,85,85,85,85,85,85,85,85,85,85,1,
1,85,85,85,85,85,85,85,85,85,85,85,85,85,85,85,85,85,85,85,85,85,85,85,85,85,85,85,85,85,85,85,85,85,85,85,85,85,85,85,85,85,85,85,85,85,85,85,85,85,85,85,85,85,85,85,85,85,85,85,85,85,85,85,85,85,85,85,85,85,85,85,85,85,85,85,85,85,85,85,85,85,85,85,85,85,85,85,85,85,85,85,85,85,85,85,85,85,85,85,85,85,85,85,85,85,85,85,85,85,85,85,85,85,85,85,85,85,85,1,
1,85,85,85,85,85,85,85,85,85,85,85,85,85,85,85,85,85,85,85,85,85,85,85,85,85,85,85,85,85,85,85,85,85,85,85,85,85,85,85,85,85,85,85,85,85,85,85,85,85,85,85,85,85,85,85,85,85,85,85,85,85,85,85,85,85,85,85,85,85,85,85,85,85,85,85,85,85,85,85,85,85,85,85,85,85,85,85,85,85,85,85,85,85,85,85,85,85,85,85,85,85,85,85,85,85,85,85,85,85,85,85,85,85,85,85,85,85,85,1,
1,85,85,85,85,85,85,85,85,85,85,85,85,85,85,85,85,85,85,85,85,85,85,85,85,85,85,85,85,85,85,85,85,85,85,85,85,85,85,85,85,85,85,85,85,85,85,85,85,85,85,85,85,85,85,85,85,85,85,85,85,85,85,85,85,85,85,85,85,85,85,85,85,85,85,85,85,85,85,85,85,85,85,85,85,85,85,85,85,85,85,85,85,85,116,101,101,101,101,101,117,85,85,85,85,85,85,85,85,85,85,85,85,85,85,85,85,85,85,1,
1,85,85,85,85,85,85,85,85,85,85,85,85,85,85,85,85,85,85,85,85,85,85,85,85,85,85,85,85,85,85,85,85,85,85,85,85,85,85,85,85,85,85,85,85,85,85,85,85,85,85,85,85,85,85,85,85,85,85,85,85,85,85,85,85,85,85,85,85,85,85,85,85,85,85,85,85,85,85,85,85,85,85,85,85,85,85,85,85,85,116,101,101,101,102,341,341,341,341,341,100,101,117,85,85,85,85,85,85,85,85,85,85,85,85,85,85,85,85,1,
1,85,85,85,85,85,85,85,85,85,85,85,85,85,85,85,85,85,85,85,85,85,85,85,85,85,85,85,85,85,85,85,85,85,85,85,85,85,85,85,85,85,85,85,85,85,85,85,85,85,85,85,85,85,85,85,85,85,85,85,85,85,85,85,85,85,85,85,85,85,85,85,85,85,85,85,85,85,85,85,85,85,85,85,85,85,85,85,116,101,102,341,341,341,341,341,341,341,341,341,341,341,84,85,85,85,85,85,85,85,85,85,85,85,85,85,85,85,85,1,
1,85,85,85,85,85,85,85,85,85,85,85,85,85,85,85,85,85,85,85,85,85,85,85,85,85,85,85,85,85,85,85,85,85,85,85,85,85,85,85,85,85,85,85,85,85,85,85,85,85,85,85,85,85,85,85,85,85,85,85,85,85,85,85,85,85,85,85,85,85,85,85,85,85,85,85,85,85,85,85,85,85,85,85,85,85,116,101,102,341,341,341,341,341,341,341,341,341,341,341,341,341,100,117,85,85,85,85,85,85,85,85,85,85,85,85,85,85,85,1,
1,85,85,85,85,85,85,85,85,85,85,85,85,85,85,85,85,85,85,85,85,85,85,85,85,85,85,85,85,85,85,85,85,85,85,85,85,85,85,85,85,85,85,85,85,85,85,85,85,85,85,85,85,85,85,85,85,85,85,85,85,85,85,85,85,85,85,85,85,85,85,85,85,85,85,85,85,85,85,85,85,85,85,116,101,101,102,341,341,341,341,341,341,341,341,341,341,341,341,341,341,341,341,84,85,85,85,85,85,85,85,85,85,85,85,85,85,85,85,1,
1,85,85,85,85,85,85,85,85,85,85,85,85,85,85,85,85,85,85,85,85,85,85,85,85,85,85,85,85,85,85,85,85,85,85,85,85,85,85,85,85,85,85,85,85,85,85,85,85,85,85,85,85,85,85,85,85,85,85,85,85,85,85,85,85,85,85,85,85,85,85,85,85,85,85,85,85,85,85,85,85,85,116,102,341,341,341,341,341,341,341,341,341,341,341,341,341,341,341,341,341,341,341,100,117,85,85,85,85,85,85,85,85,85,85,85,85,85,85,1,
1,85,85,85,85,85,85,85,85,85,85,85,85,85,85,85,85,85,85,85,85,85,85,85,85,85,85,85,85,85,85,85,85,85,85,85,85,85,85,85,85,85,85,85,85,0,0,0,0,0,0,0,0,0,0,0,0,0,0,0,0,0,0,0,0,0,0,0,0,0,0,0,0,0,85,85,85,85,85,85,116,101,102,341,341,341,341,341,341,341,341,341,341,341,341,341,341,341,341,341,341,341,341,341,84,85,85,85,85,85,85,85,85,85,85,85,85,85,85,1,
1,85,85,85,85,85,85,85,85,85,85,85,85,85,85,85,85,85,85,85,85,85,85,85,85,85,85,85,85,85,85,85,85,85,85,85,85,85,85,85,85,85,85,85,85,0,0,0,0,0,0,0,0,0,0,0,0,0,0,0,0,0,0,0,0,0,0,0,0,0,0,0,0,0,85,85,85,85,85,85,86,341,341,341,341,341,341,341,341,341,341,341,341,341,341,341,341,341,341,341,341,341,341,341,100,117,85,85,85,85,85,85,85,85,85,85,85,85,85,1,
1,85,85,85,85,85,85,85,85,85,85,85,85,85,85,85,85,85,85,85,85,85,85,85,85,85,85,85,85,85,85,85,85,85,85,85,85,85,85,85,85,85,85,85,85,0,0,0,0,0,0,0,0,0,0,0,0,0,0,0,0,0,0,0,0,0,0,0,0,0,0,0,0,0,85,85,85,85,85,116,102,341,341,341,341,341,341,341,341,341,341,341,341,341,341,341,341,341,341,341,341,341,341,341,341,100,117,85,85,85,85,85,85,85,85,85,85,85,85,1,
1,85,85,85,85,85,85,85,85,85,85,85,85,85,85,85,85,85,85,85,85,85,85,85,85,85,85,85,85,85,85,85,85,85,85,85,85,85,85,85,85,85,85,85,85,0,0,0,0,0,0,0,0,0,0,0,0,0,0,0,0,0,0,0,0,0,0,0,0,0,0,0,0,0,85,85,85,85,85,86,341,341,341,341,341,341,341,341,341,580,581,581,581,582,341,341,580,581,581,581,581,582,341,341,341,341,84,85,85,85,85,85,85,85,85,85,85,85,85,1,
1,85,85,85,85,85,85,85,85,85,85,85,85,85,85,116,101,101,101,101,101,101,101,101,101,101,101,101,101,117,85,85,85,85,85,85,85,85,85,85,85,85,85,85,85,0,0,0,0,0,0,0,0,0,0,0,0,0,0,0,0,0,0,0,0,0,0,0,0,0,0,0,0,0,85,85,85,85,116,102,341,341,341,341,341,341,341,341,341,596,597,597,597,2684355205,581,581,645,597,597,597,597,598,341,341,341,341,84,85,85,85,85,85,85,85,85,85,85,85,85,1,
1,85,85,85,85,85,85,85,85,85,85,85,85,85,85,86,341,341,341,341,341,341,341,341,341,341,341,341,341,84,85,85,85,85,85,85,85,85,85,85,85,85,85,85,85,0,0,0,0,0,0,0,0,0,0,0,0,0,0,0,0,0,0,0,0,0,0,0,0,0,0,0,0,0,85,85,85,85,86,341,341,341,341,341,341,341,341,341,341,596,597,597,597,597,597,597,597,597,597,3221226117,613,614,341,341,341,341,84,85,85,85,85,85,85,85,85,85,85,85,85,1,
1,85,85,85,85,85,85,85,85,85,85,85,85,116,101,102,341,580,581,582,341,341,341,341,580,581,581,582,341,84,85,85,85,85,85,85,85,85,85,85,85,85,85,85,85,0,0,0,0,0,0,0,0,0,0,0,0,0,0,0,0,0,0,0,0,0,0,0,0,0,0,0,0,0,85,85,85,85,86,341,341,341,341,341,341,341,341,341,341,596,597,597,597,597,597,597,597,597,597,598,341,341,341,341,341,341,84,85,85,85,85,85,85,85,85,85,85,85,85,1,
1,85,85,85,85,85,85,85,85,85,85,85,85,86,341,341,341,1610613317,597,3221226101,581,581,581,581,2684355189,597,597,2684355141,341,84,85,85,85,85,85,85,85,85,85,85,85,85,85,85,85,0,0,0,0,0,0,0,0,0,0,0,0,0,0,0,0,0,0,0,0,0,0,0,0,0,0,0,0,0,85,85,85,85,86,341,341,341,341,341,341,341,341,341,341,612,1610613381,597,597,597,597,597,597,597,597,598,341,341,341,341,341,341,84,85,85,85,85,85,85,85,85,85,85,85,85,1,
1,85,85,85,85,85,85,85,85,85,85,85,85,86,341,580,581,2684355189,597,597,597,597,597,597,597,1610613365,613,3221226052,341,84,85,85,85,85,85,85,85,85,85,85,85,85,85,85,85,0,0,0,0,0,0,0,0,0,0,0,0,0,0,0,0,0,0,0,0,0,0,0,0,0,0,0,0,0,85,85,85,85,132,70,341,341,341,341,341,341,341,341,341,341,612,1610613381,597,597,597,597,597,597,597,598,341,341,341,341,341,341,84,85,85,85,85,85,85,85,85,85,85,85,85,1,
1,85,85,85,85,85,85,85,85,85,85,85,85,86,341,1610613317,597,597,597,597,597,597,597,597,597,2684355141,341,341,68,133,85,85,85,85,85,85,85,85,85,85,85,85,85,85,85,0,0,0,0,0,0,0,0,0,0,0,0,0,0,0,0,0,0,0,0,0,0,0,0,0,0,0,0,0,85,85,85,85,85,86,341,341,341,341,341,341,341,341,341,341,341,596,597,597,597,597,597,597,597,2684355205,581,582,341,341,341,341,84,85,85,85,85,85,85,85,85,85,85,85,85,1,
1,85,85,85,85,85,85,85,85,85,85,85,85,86,341,612,629,597,597,597,597,597,597,597,597,2684355141,341,341,84,85,85,85,85,85,85,85,85,85,85,85,85,85,85,85,85,0,0,0,0,0,0,0,0,0,0,0,0,0,0,0,0,0,0,0,0,0,0,0,0,0,0,0,0,0,85,85,85,85,85,86,341,341,341,341,341,341,341,341,341,341,580,645,597,597,597,597,597,597,597,597,597,598,341,341,341,341,84,85,85,85,85,85,85,85,85,85,85,85,85,1,
1,85,85,85,85,85,85,85,85,85,85,85,85,132,70,341,612,629,597,597,2684355157,2684355157,2684355157,2684355157,597,2684355141,341,341,100,117,85,85,85,85,85,85,85,85,85,85,85,85,85,85,85,0,0,0,0,0,0,0,0,0,0,0,0,0,0,0,0,0,0,0,0,0,0,0,0,0,0,0,0,0,85,85,85,85,85,132,70,341,341,341,341,341,341,341,341,580,645,597,597,597,597,597,597,597,597,597,597,598,341,341,341,341,84,85,85,85,85,85,85,85,85,85,85,85,85,1,
1,85,85,85,85,85,85,85,85,85,85,85,85,85,86,341,341,1610613317,597,597,597,597,1610613365,3221226053,629,3221226101,581,582,341,84,85,85,85,85,85,85,85,85,85,85,85,85,85,85,85,0,0,0,0,0,0,0,0,0,0,0,0,0,0,0,0,0,0,0,0,0,0,0,0,0,0,0,0,0,85,85,85,85,85,85,86,341,341,341,341,341,341,341,341,596,597,3221226117,613,613,1610613381,597,3221226117,613,613,1610613381,597,598,341,341,341,341,100,117,85,85,85,85,85,85,85,85,85,85,85,1,
1,85,85,85,85,85,85,85,85,85,85,85,85,116,102,341,580,2684355189,597,597,597,597,2684355141,341,1610613317,597,1610613365,614,341,84,85,85,85,85,85,85,85,85,85,85,85,85,85,85,85,0,0,0,0,0,0,0,0,0,0,0,0,0,0,0,0,0,0,0,0,0,0,0,0,0,0,0,0,0,85,85,85,85,85,85,132,70,341,341,341,341,341,341,341,612,613,614,341,341,612,613,614,341,341,612,613,614,341,341,341,341,341,84,85,85,85,85,85,85,85,85,85,85,85,1,
1,85,85,85,85,85,85,85,85,85,85,85,85,86,341,580,2684355189,597,597,597,597,597,3221226101,581,2684355189,597,2684355141,341,341,84,85,85,85,85,85,85,85,85,85,85,85,85,85,85,85,0,0,0,0,0,0,0,0,0,0,0,0,0,0,0,0,0,0,0,0,0,0,0,0,0,0,0,0,0,85,85,85,85,85,85,85,132,70,341,341,341,341,341,341,341,341,341,341,341,341,341,341,341,341,341,341,341,341,341,341,341,341,84,85,85,85,85,85,85,85,85,85,85,85,1,
1,85,85,85,85,85,85,85,85,85,85,85,85,86,341,1610613317,597,1610613365,613,613,629,597,1610613365,613,613,629,3221226101,582,341,84,85,85,85,85,85,85,85,85,85,85,85,85,85,85,85,0,0,0,0,0,0,0,0,0,0,0,0,0,0,0,0,0,0,0,0,0,0,0,0,0,0,0,0,0,85,85,85,85,85,85,85,85,86,341,341,341,341,341,341,341,341,341,341,341,341,341,341,341,341,341,341,341,341,341,341,341,68,133,85,85,85,85,85,85,85,85,85,85,85,1,
1,85,85,85,85,85,85,85,85,85,85,85,85,86,341,612,613,614,341,341,1610613316,613,614,341,341,1610613316,613,614,341,84,85,85,85,85,85,85,85,85,85,85,85,85,85,85,85,0,0,0,0,0,0,0,0,0,0,0,0,0,0,0,0,0,0,0,0,0,0,0,0,0,0,0,0,0,85,85,85,85,85,85,85,85,132,70,341,341,341,341,341,341,341,341,341,341,341,341,341,341,341,341,341,341,341,341,341,68,133,85,85,85,85,85,85,85,85,85,85,85,85,1,
1,85,85,85,85,85,85,85,85,85,85,85,85,132,70,341,341,341,341,341,341,341,341,341,341,341,341,341,341,84,85,85,85,85,85,85,85,85,85,85,85,85,85,85,85,0,0,0,0,0,0,0,0,0,0,0,0,0,0,0,0,0,0,0,0,0,0,0,0,0,0,0,0,0,85,85,85,85,85,85,85,85,85,132,70,341,341,341,341,341,341,341,341,341,341,341,341,341,341,341,341,341,68,69,69,133,85,85,85,85,85,85,85,85,85,85,85,85,85,1,
1,85,85,85,85,85,85,85,85,85,85,85,85,85,132,69,69,69,69,69,69,69,69,69,69,69,69,69,69,133,85,85,85,85,85,85,85,85,85,85,85,85,85,85,85,0,0,0,0,0,0,0,0,0,0,0,0,0,0,0,0,0,0,0,0,0,0,0,0,0,0,0,0,0,85,85,85,85,85,85,85,85,85,85,132,70,341,341,341,341,341,341,341,341,341,341,341,341,68,69,69,69,133,85,85,85,85,85,85,85,85,85,85,85,85,85,85,85,85,1,
1,85,85,85,85,85,85,85,85,85,85,85,85,85,85,85,85,85,85,85,85,85,85,85,85,85,85,85,85,85,85,85,85,85,85,85,85,85,85,85,85,85,85,85,85,0,0,0,0,0,0,0,0,0,0,0,0,0,0,0,0,0,0,0,0,0,0,0,0,0,0,0,0,0,85,85,85,85,85,85,85,85,85,85,85,132,69,70,341,341,341,68,69,69,69,69,69,69,133,85,85,85,85,85,85,85,85,85,85,85,85,85,85,85,85,85,85,85,85,1,
1,85,85,85,85,85,85,85,85,85,85,85,85,85,85,85,85,85,85,85,85,85,85,85,85,85,85,85,85,85,85,85,85,85,85,85,85,85,85,85,85,85,85,85,85,0,0,0,0,0,0,0,0,0,0,0,0,0,0,0,0,0,0,0,0,0,0,0,0,0,0,0,0,0,85,85,85,85,85,85,85,85,85,85,85,85,85,132,69,69,69,133,85,85,85,85,85,85,85,85,85,85,85,85,85,85,85,85,85,85,85,85,85,85,85,85,85,85,85,1,
1,85,85,85,85,85,85,85,85,85,85,85,85,85,85,85,85,85,85,85,85,85,85,85,85,85,85,85,85,85,85,85,85,85,85,85,85,85,85,85,85,85,85,85,85,85,85,85,85,85,85,85,85,85,85,85,85,85,85,85,85,85,85,85,85,85,85,85,85,85,85,85,85,85,85,85,85,85,85,85,85,85,85,85,85,85,85,85,85,85,85,85,85,85,85,85,85,85,85,85,85,85,85,85,85,85,85,85,85,85,85,85,85,85,85,85,85,85,85,1,
1,85,85,85,85,85,85,85,85,85,85,85,85,85,85,85,85,85,85,85,85,85,85,85,85,85,85,85,85,85,85,85,85,85,85,85,85,85,85,85,85,85,85,85,85,85,85,85,85,85,85,85,85,85,85,85,85,85,85,85,85,85,85,85,85,85,85,85,85,85,85,85,85,85,85,85,85,85,85,85,85,85,85,85,85,85,85,85,85,85,85,85,85,85,85,85,85,85,85,85,85,85,85,85,85,85,85,85,85,85,85,85,85,85,85,85,85,85,85,1,
1,85,85,85,85,85,85,85,85,85,85,85,85,85,85,85,85,85,85,85,85,85,85,85,85,85,85,85,85,85,85,85,85,85,85,85,85,85,85,85,85,85,85,85,85,85,85,85,85,85,85,85,85,85,85,85,85,85,85,85,85,85,85,85,85,85,85,85,85,85,85,85,85,85,85,85,85,85,85,85,85,85,85,85,85,85,85,85,85,85,85,85,85,85,85,85,85,85,85,85,85,85,85,85,85,85,85,85,85,85,85,85,85,85,85,85,85,85,85,1,
1,1,1,1,1,1,1,1,1,1,1,1,1,1,1,1,1,1,1,1,1,1,1,1,1,1,1,1,1,1,1,1,1,1,1,1,1,1,1,1,1,1,1,1,1,1,1,1,1,1,1,1,1,1,1,1,1,1,1,1,1,1,1,1,1,1,1,1,1,1,1,1,1,1,1,1,1,1,1,1,1,1,1,1,1,1,1,1,1,1,1,1,1,1,1,1,1,1,1,1,1,1,1,1,1,1,1,1,1,1,1,1,1,1,1,1,1,1,1,1
</data>
 </layer>
 <layer id="7" name="Maree_Basse" width="120" height="96">
  <data encoding="csv">
1,1,1,1,1,1,1,1,1,1,1,1,1,1,1,1,1,1,1,1,1,1,1,1,1,1,1,1,1,1,1,1,1,1,1,1,1,1,1,1,1,1,1,1,1,1,1,1,1,1,1,1,1,1,1,1,1,1,1,1,1,1,1,1,1,1,1,1,1,1,1,1,1,1,1,1,1,1,1,1,1,1,1,1,1,1,1,1,1,1,1,1,1,1,1,1,1,1,1,1,1,1,1,1,1,1,1,1,1,1,1,1,1,1,1,1,1,1,1,1,
1,85,85,85,85,85,85,85,85,85,85,85,85,85,85,85,85,85,85,85,85,85,85,85,85,85,85,85,85,85,85,85,85,85,85,85,85,85,1,1,1,1,1,1,1,1,1,1,1,1,1,1,1,1,1,1,1,1,1,1,1,1,1,1,1,1,1,1,1,1,1,1,1,1,1,1,1,1,1,85,85,85,85,85,85,85,85,85,85,85,116,101,101,101,101,101,101,101,101,101,101,101,101,101,101,101,101,101,101,101,101,117,85,85,85,85,85,85,85,1,
1,85,85,85,85,85,85,85,85,85,85,85,85,85,85,85,85,85,85,85,85,85,85,85,85,85,85,85,85,85,85,85,85,85,85,85,85,85,1,0,0,0,0,0,0,0,0,0,0,0,0,0,0,0,0,0,0,0,0,0,0,0,0,0,0,0,0,0,0,0,0,0,0,0,0,0,0,0,1,85,85,85,85,85,85,85,85,116,101,101,102,341,341,341,341,341,341,341,341,341,341,341,341,341,341,341,341,341,341,341,341,100,117,85,85,85,85,85,85,1,
1,85,85,85,85,85,85,85,85,85,85,85,116,101,101,101,101,101,117,85,85,85,85,85,85,85,85,85,85,85,85,85,85,85,85,85,85,85,1,0,0,0,0,0,0,0,0,0,0,0,0,0,0,0,0,0,0,0,0,0,0,0,0,0,0,0,0,0,0,0,0,0,0,0,0,0,0,0,1,85,85,85,85,85,116,101,101,102,341,341,341,341,341,341,580,581,581,581,581,581,581,581,581,581,582,341,341,341,341,341,341,341,84,85,85,85,85,85,85,1,
1,85,85,85,85,85,85,85,85,85,116,101,102,341,341,341,341,341,100,101,101,117,85,85,85,85,85,85,85,85,85,85,85,85,85,85,85,85,1,0,0,0,0,0,0,0,0,0,0,0,0,0,0,0,0,0,0,0,0,0,0,0,0,0,0,0,0,0,0,0,0,0,0,0,0,0,0,0,1,85,85,85,85,85,102,341,341,341,341,341,341,580,581,581,2684355189,597,597,597,597,597,597,597,597,597,3221226101,581,582,341,341,341,341,341,100,117,85,85,85,85,85,1,
1,85,85,85,85,85,85,85,85,116,102,341,341,341,341,341,341,341,341,341,341,100,101,101,101,101,117,85,85,85,85,85,85,85,85,85,85,85,1,0,0,0,0,0,0,0,0,0,0,0,0,0,0,0,0,0,0,0,0,0,0,0,0,0,0,0,0,0,0,0,0,0,0,0,0,0,0,0,1,85,85,85,85,86,341,341,341,341,341,580,581,2684355189,597,597,597,597,597,597,597,597,597,597,597,597,597,597,3221226101,1610613334,582,341,341,341,341,84,85,85,85,85,85,1,
1,85,85,85,85,85,85,85,116,102,341,341,341,341,341,341,341,341,341,341,341,341,341,341,341,341,100,117,85,85,85,85,85,85,85,85,85,85,1,0,0,0,0,0,0,0,0,0,0,0,0,0,0,0,0,0,0,0,0,0,0,0,0,0,0,0,0,0,0,0,0,0,0,0,0,0,0,0,1,85,85,85,116,102,341,341,341,341,580,2684355189,597,597,597,597,597,597,597,597,597,597,597,597,597,597,597,597,597,597,598,341,341,341,341,84,85,85,85,85,85,1,
1,85,85,85,85,85,85,116,102,341,341,341,341,341,341,341,341,341,341,341,341,341,341,341,341,341,341,100,117,85,85,85,85,85,85,85,85,85,1,0,0,0,0,0,0,0,0,0,0,0,0,0,0,0,0,0,0,0,0,0,0,0,0,0,0,0,0,0,0,0,0,0,0,0,0,0,0,0,1,85,85,85,86,341,341,341,341,580,2684355189,597,597,597,597,597,597,597,597,597,597,597,597,597,597,597,597,597,597,597,598,341,341,341,341,100,117,85,85,85,85,1,
1,85,85,85,85,85,116,102,341,341,341,580,581,581,581,581,581,581,581,581,581,581,582,341,341,341,341,341,84,85,85,85,85,85,85,85,85,85,1,0,0,0,0,0,0,0,0,0,0,0,0,0,0,0,0,0,0,0,0,0,0,0,0,0,0,0,0,0,0,0,0,0,0,0,0,0,0,0,1,85,85,85,86,341,341,341,341,596,597,597,597,597,597,597,597,597,597,597,597,597,597,597,597,597,597,597,597,597,598,341,341,341,341,341,84,85,85,85,85,1,
1,85,85,85,85,116,102,341,341,580,581,2684355189,597,597,597,597,597,597,597,597,597,597,3221226101,581,581,582,341,341,100,117,85,85,85,85,85,85,85,85,1,0,0,0,0,0,0,0,0,0,0,0,0,0,0,0,0,0,0,0,0,0,0,0,0,0,0,0,0,0,0,0,0,0,0,0,0,0,0,0,1,85,85,85,86,341,341,341,341,596,597,597,597,597,597,597,597,597,597,597,597,597,597,597,597,597,597,597,597,597,598,341,341,341,341,341,84,85,85,85,85,1,
1,85,85,85,85,86,341,341,341,3221226070,597,597,597,597,597,597,597,597,597,597,597,597,597,597,597,3221226101,582,341,341,100,117,85,85,85,85,85,85,85,1,0,0,0,0,0,0,0,0,0,0,0,0,0,0,0,0,0,0,0,0,0,0,0,0,0,0,0,0,0,0,0,0,0,0,0,0,0,0,0,1,85,85,85,132,70,341,341,341,596,597,597,597,597,597,597,597,597,597,597,597,597,597,597,597,597,597,597,597,597,3221226101,582,341,341,341,341,100,117,85,85,85,1,
1,85,85,85,116,102,341,341,580,2684355189,597,597,597,597,597,597,597,597,597,597,597,597,597,597,597,597,598,341,341,341,84,85,85,85,85,85,85,85,1,0,0,0,0,0,0,0,0,0,0,0,0,0,0,0,0,0,0,0,0,0,0,0,0,0,0,0,0,0,0,0,0,0,0,0,0,0,0,0,1,85,85,85,85,86,341,341,341,596,597,597,597,597,597,597,597,597,597,597,597,597,597,597,597,597,597,597,597,597,597,598,341,341,341,341,341,84,85,85,85,1,
1,85,85,85,86,341,341,341,596,597,597,597,597,597,597,597,597,597,597,597,597,597,597,597,597,1610613365,614,341,341,341,84,85,85,85,85,85,85,85,1,0,0,0,0,0,0,0,0,0,0,0,0,0,0,0,0,0,0,0,0,0,0,0,0,0,0,0,0,0,0,0,0,0,0,0,0,0,0,0,1,85,85,85,85,86,341,341,341,596,597,597,597,597,597,597,597,597,597,597,597,597,597,597,597,597,597,597,597,597,597,598,341,341,341,341,341,84,85,85,85,1,
1,85,85,85,86,341,341,341,596,597,597,597,597,597,597,597,597,597,597,597,597,597,597,597,597,598,341,341,341,341,84,85,85,85,85,85,85,85,1,0,0,0,0,0,0,0,0,0,0,0,0,0,0,0,0,0,0,0,0,0,0,0,0,0,0,0,0,0,0,0,0,0,0,0,0,0,0,0,1,85,85,85,85,86,341,341,341,612,629,597,597,597,597,597,597,597,597,597,597,597,597,597,597,597,597,597,597,597,597,598,341,341,341,341,341,84,85,85,85,1,
1,85,85,85,86,341,341,341,596,597,597,597,597,597,597,597,597,597,597,597,597,597,597,597,597,598,341,341,341,341,100,117,85,85,85,85,85,85,1,0,0,0,0,0,0,0,0,0,0,0,0,0,0,0,0,0,0,0,0,0,0,0,0,0,0,0,0,0,0,0,0,0,0,0,0,0,0,0,1,85,85,85,85,86,341,341,341,341,596,597,597,597,597,597,597,597,597,597,597,597,597,597,597,597,597,597,597,597,597,598,341,341,341,341,341,84,85,85,85,1,
1,85,85,85,86,341,341,341,612,629,597,597,597,597,597,597,597,597,597,597,597,597,597,597,597,598,341,341,341,341,341,84,85,85,85,85,85,85,1,0,0,0,0,0,0,0,0,0,0,0,0,0,0,0,0,0,0,0,0,0,0,0,0,0,0,0,0,0,0,0,0,0,0,0,0,0,0,0,1,85,85,85,116,102,341,341,341,341,596,597,597,597,597,597,597,597,597,597,597,597,597,597,597,597,597,597,597,597,597,3221226101,582,341,341,341,341,84,85,85,85,1,
1,85,85,85,86,341,341,341,341,596,597,597,597,597,597,597,597,597,597,597,597,597,597,597,597,598,341,341,341,341,341,84,85,85,85,85,85,85,1,0,0,0,0,0,0,0,0,0,0,0,0,0,0,0,0,0,0,0,0,0,0,0,0,0,0,0,0,0,0,0,0,0,0,0,0,0,0,0,1,85,85,85,86,341,341,341,341,341,596,597,597,597,597,597,597,597,597,597,597,597,597,597,597,597,597,597,597,597,597,597,598,341,341,341,341,84,85,85,85,1,
1,85,85,85,86,341,341,341,341,596,597,597,597,597,597,597,597,597,597,597,597,597,597,597,597,598,341,341,341,341,341,84,85,85,85,85,85,85,1,0,0,0,0,0,0,0,0,0,0,0,0,0,0,0,0,0,0,0,0,0,0,0,0,0,0,0,0,0,0,0,0,0,0,0,0,0,0,0,1,85,85,85,86,341,341,341,341,341,596,597,597,597,597,597,597,597,597,597,597,597,597,597,597,597,597,597,597,597,597,597,598,341,341,341,341,84,85,85,85,1,
1,85,85,85,86,341,341,341,341,596,597,597,597,597,597,597,597,597,597,597,597,597,597,597,597,598,341,341,341,341,341,84,85,85,85,85,85,85,1,0,0,0,0,0,0,0,0,0,0,0,0,0,0,0,0,0,0,0,0,0,0,0,0,0,0,0,0,0,0,0,0,0,0,0,0,0,0,0,1,85,85,85,86,341,341,341,341,341,612,629,597,597,597,597,597,597,597,597,597,597,597,597,597,597,597,597,597,597,597,597,598,341,341,341,341,84,85,85,85,1,
1,85,85,85,86,341,341,341,341,596,597,597,597,597,597,597,597,597,597,597,597,597,597,597,597,598,341,341,341,341,341,84,85,85,85,85,85,85,1,0,0,0,0,0,0,0,0,0,0,0,0,0,0,0,0,0,0,0,0,0,0,0,0,0,0,0,0,0,0,0,0,0,0,0,0,0,0,0,1,85,85,85,86,341,341,341,341,341,341,596,597,597,597,597,597,597,597,597,597,597,597,597,597,597,597,597,597,597,597,597,598,341,341,341,341,84,85,85,85,1,
1,85,85,85,86,341,341,341,341,612,629,597,597,597,597,597,597,597,597,597,597,597,597,597,1610613365,614,341,341,341,341,68,133,85,85,85,85,85,85,1,0,0,0,0,0,0,0,0,0,0,0,0,0,0,0,0,0,0,0,0,0,0,0,0,0,0,0,0,0,0,0,0,0,0,0,0,0,0,0,1,85,85,85,86,341,341,341,341,341,341,612,629,597,597,597,597,597,597,597,597,597,597,597,597,597,597,597,597,597,597,1610613365,614,341,341,341,341,84,85,85,85,1,
1,85,85,85,86,341,341,341,341,341,3221226070,597,597,597,597,597,597,597,597,597,597,597,597,1610613365,614,341,341,341,341,341,84,85,85,85,85,85,85,85,1,0,0,0,0,0,0,0,0,0,0,0,0,0,0,0,0,0,0,0,0,0,0,0,0,0,0,0,0,0,0,0,0,0,0,0,0,0,0,0,1,85,85,85,86,341,341,341,341,341,341,341,596,597,597,597,597,597,597,597,597,597,597,597,597,597,597,597,597,597,597,598,341,341,341,341,341,84,85,85,85,1,
1,85,85,85,86,341,341,341,341,341,612,629,597,597,597,597,597,597,597,597,1610613365,613,613,614,341,341,341,341,341,341,84,85,85,85,85,85,85,85,1,0,0,0,0,0,0,0,0,0,0,0,0,0,0,0,0,0,0,0,0,0,0,0,0,0,0,0,0,0,0,0,0,0,0,0,0,0,0,0,1,85,85,85,132,70,341,341,341,341,341,341,612,629,597,597,597,597,597,597,597,597,597,597,597,597,597,597,597,1610613365,613,614,341,341,341,341,68,133,85,85,85,1,
1,85,85,85,132,69,70,341,341,341,341,612,613,613,613,613,613,613,613,613,614,341,341,341,341,341,341,341,341,68,133,85,85,85,85,85,85,85,1,0,0,0,0,0,0,0,0,0,0,0,0,0,0,0,0,0,0,0,0,0,0,0,0,0,0,0,0,0,0,0,0,0,0,0,0,0,0,0,1,85,85,85,85,132,70,341,341,341,341,341,341,596,597,597,597,597,597,597,597,597,597,597,597,1610613365,613,613,613,614,341,341,341,341,341,341,84,85,85,85,85,1,
1,85,85,85,85,85,132,69,70,341,341,341,341,341,341,341,341,341,341,341,341,341,341,341,341,341,341,341,68,133,85,85,85,85,85,85,85,85,1,1,1,1,1,1,1,1,1,1,1,1,1,1,1,1,1,1,1,1,1,1,1,1,1,1,1,1,1,1,1,1,1,1,1,1,1,1,1,1,1,85,85,85,85,85,132,70,341,341,341,341,341,612,613,613,629,597,1610613365,613,613,613,613,613,613,614,341,341,341,341,341,341,341,341,341,68,133,85,85,85,85,1,
1,85,85,85,85,85,85,85,132,70,341,341,341,341,341,341,341,341,341,341,341,341,341,341,341,341,341,68,133,85,85,85,85,85,85,85,85,85,85,85,85,85,85,85,85,85,85,85,85,85,85,85,85,85,85,85,85,85,85,85,85,85,85,85,85,85,85,85,85,85,85,85,85,85,85,85,85,85,85,85,85,85,85,85,85,132,70,341,341,341,341,341,341,341,612,613,614,341,341,341,341,341,341,341,341,341,341,341,341,341,341,341,341,84,85,85,85,85,85,1,
1,85,85,85,85,85,85,85,85,132,69,69,70,341,341,341,341,341,341,341,341,341,341,341,68,69,69,133,85,85,85,85,85,85,85,85,85,85,85,85,85,85,85,85,85,85,85,116,101,101,101,101,101,101,117,85,85,116,101,117,85,85,85,85,85,116,101,101,117,85,85,85,85,85,85,85,85,85,85,85,85,85,85,85,85,85,132,70,341,341,341,341,341,341,341,341,341,341,341,341,341,341,341,341,341,341,341,341,341,341,341,341,341,84,85,85,85,85,85,1,
1,85,85,85,85,85,85,85,85,85,85,85,132,69,69,70,341,341,341,341,68,69,69,69,133,85,85,85,85,85,85,85,85,85,85,85,85,85,85,85,85,85,85,85,85,85,116,102,341,341,341,341,341,341,100,117,85,102,341,84,85,85,85,85,85,86,341,341,84,85,85,85,85,85,85,85,85,85,85,85,85,85,85,85,85,85,85,132,69,70,341,341,341,341,341,341,341,341,341,341,341,341,341,341,341,341,341,341,341,341,341,341,68,133,85,85,85,85,85,1,
1,85,85,85,85,85,85,85,85,85,85,85,85,85,85,132,69,69,69,69,133,85,85,85,85,85,85,85,85,85,85,85,85,85,85,85,85,85,85,85,85,85,85,85,85,116,102,341,341,341,341,341,341,341,341,100,102,341,341,100,101,117,85,85,116,102,341,341,100,117,85,85,116,101,101,117,85,85,85,85,85,85,85,85,85,85,85,85,85,132,69,70,341,341,341,341,341,341,341,341,341,341,341,341,341,341,341,341,341,341,341,341,84,85,85,85,85,85,85,1,
1,85,85,85,85,85,85,85,85,85,85,85,85,85,85,85,85,85,85,85,85,85,85,85,85,85,85,85,85,85,85,85,85,85,85,85,85,85,85,85,85,85,85,85,85,86,341,341,341,341,341,341,341,341,341,341,341,341,341,341,341,100,101,101,102,341,341,341,341,100,101,101,102,341,341,136,101,101,117,85,85,85,85,85,85,85,85,85,85,85,85,86,341,341,341,341,341,341,341,341,341,341,341,341,341,341,341,341,341,341,341,68,133,85,85,85,85,85,85,1,
1,85,85,85,85,85,85,85,85,85,85,85,85,85,85,85,85,85,85,85,85,85,85,85,85,85,85,85,85,85,85,85,85,85,85,85,85,85,85,85,85,85,85,85,85,86,341,341,341,341,341,341,341,341,341,341,341,341,341,341,341,341,341,341,341,341,341,341,341,341,341,341,341,341,341,103,341,341,84,85,85,85,85,85,85,85,85,85,85,85,85,132,70,341,341,341,341,341,341,341,341,341,341,341,341,341,341,341,341,341,68,133,85,85,85,85,85,85,85,1,
1,85,85,85,85,85,85,85,85,85,85,85,85,1,1,1,1,1,1,1,1,1,1,1,1,1,1,1,1,1,1,1,1,1,1,85,85,85,85,85,85,85,85,85,116,102,341,341,341,341,341,341,341,341,341,341,341,341,341,341,341,341,341,341,341,341,341,341,341,341,341,341,341,341,341,341,341,341,84,85,85,85,85,85,85,85,85,85,85,85,85,85,86,341,341,341,341,341,341,341,341,341,341,341,341,341,341,341,341,68,133,85,85,85,85,85,85,85,85,1,
1,85,85,85,85,85,85,85,85,85,85,85,85,1,0,0,0,0,0,0,0,0,0,0,0,0,0,0,0,0,0,0,0,0,1,85,85,85,85,85,85,85,85,85,86,341,341,341,341,580,581,581,581,581,581,581,581,581,581,581,581,581,581,581,581,581,581,581,581,581,582,341,341,341,341,341,341,341,84,85,85,85,85,85,85,85,85,85,85,85,85,85,132,69,69,69,69,69,69,69,69,69,69,69,69,69,69,69,69,133,85,85,85,85,85,85,85,85,85,1,
1,85,85,85,85,85,85,85,85,85,85,85,85,1,0,0,0,0,0,0,0,0,0,0,0,0,0,0,0,0,0,0,0,0,1,85,85,85,85,85,85,85,85,116,102,341,341,341,580,645,597,597,597,597,597,597,597,597,597,597,597,597,597,597,597,597,597,597,597,597,2684355205,581,581,582,341,341,341,341,84,85,85,85,85,85,85,85,85,85,85,85,85,85,85,85,85,85,85,85,85,85,85,85,85,85,85,85,85,85,85,85,85,85,85,85,85,85,85,85,85,1,
1,85,85,85,85,85,85,85,85,85,85,85,85,1,0,0,0,0,0,0,0,0,0,0,0,0,0,0,0,0,0,0,0,0,1,85,85,85,85,85,85,85,85,86,341,341,341,341,596,597,597,597,597,597,597,597,597,597,597,597,597,597,597,597,597,597,597,597,597,597,597,597,597,598,341,341,341,341,100,117,85,85,85,85,85,85,85,85,85,85,85,85,85,85,85,85,85,85,85,85,85,85,85,85,85,85,85,85,85,85,85,85,85,85,85,85,85,85,85,1,
1,85,85,85,85,85,85,85,85,85,85,85,85,1,0,0,0,0,0,0,0,0,0,0,0,0,0,0,0,0,0,0,0,0,1,85,85,85,85,85,85,85,85,86,341,341,341,341,596,597,597,597,597,597,597,597,597,597,597,597,597,597,597,597,597,597,597,597,597,597,597,597,597,598,341,341,341,341,341,84,85,85,85,85,85,85,85,85,85,85,85,85,85,85,85,85,85,85,85,85,85,85,85,85,85,85,85,85,85,85,85,85,85,85,85,85,85,85,85,1,
1,85,85,85,85,85,85,85,85,85,85,85,85,1,0,0,0,0,0,0,0,0,0,0,0,0,0,0,0,0,0,0,0,0,1,85,85,85,85,85,85,85,116,102,341,341,341,341,596,597,597,597,597,597,597,597,597,597,597,597,597,597,597,597,597,597,597,597,597,597,597,597,597,598,341,341,341,341,341,84,85,85,85,85,85,85,85,85,85,85,85,85,85,85,85,85,85,85,85,85,85,85,85,85,85,85,85,85,85,85,85,85,85,85,85,85,85,85,85,1,
1,85,85,85,85,85,85,85,85,85,85,85,85,1,0,0,0,0,0,0,0,0,0,0,0,0,0,0,0,0,0,0,0,0,1,85,85,85,85,85,85,116,102,341,341,341,341,580,645,597,597,597,597,597,597,597,597,597,597,597,597,597,597,597,597,597,597,597,597,597,597,597,597,2684355205,582,341,341,341,341,84,85,85,85,85,85,85,85,85,85,85,85,85,85,85,85,85,85,85,85,85,85,85,85,85,85,85,85,85,85,85,85,85,85,85,85,85,85,85,85,1,
1,85,85,85,85,85,85,85,85,85,85,85,85,1,0,0,0,0,0,0,0,0,0,0,0,0,0,0,0,0,0,0,0,0,1,85,85,85,85,85,85,86,341,341,341,341,341,596,597,597,597,597,597,597,597,597,597,597,597,597,597,597,597,597,597,597,597,597,597,597,597,597,597,597,598,341,341,341,104,135,85,85,85,85,85,85,85,85,85,85,85,85,85,85,85,85,85,85,85,85,85,85,85,85,85,85,85,85,85,85,85,85,85,85,85,85,85,85,85,1,
1,85,85,85,85,85,85,85,85,85,85,85,85,1,0,0,0,0,0,0,0,0,0,0,0,0,0,0,0,0,0,0,0,0,1,85,85,85,85,85,116,102,341,341,341,341,341,596,597,597,597,597,597,597,597,597,597,19,20,21,22,23,24,25,597,597,597,597,597,597,597,597,597,3221226117,614,341,341,341,341,100,117,85,85,85,85,85,85,85,85,85,85,85,85,85,85,85,85,85,85,85,85,85,85,85,85,85,85,85,85,85,85,85,85,85,85,85,85,85,85,1,
1,85,85,85,85,85,85,85,85,85,85,85,85,1,0,0,0,0,0,0,0,0,0,0,0,0,0,0,0,0,0,0,0,0,1,85,85,85,116,101,102,341,341,341,341,341,580,645,597,597,597,597,597,597,597,597,597,26,27,28,29,30,31,32,597,597,597,597,597,597,597,597,597,598,341,341,341,341,341,341,84,85,85,85,85,85,85,85,85,85,85,85,85,85,85,85,85,85,85,85,85,85,85,85,85,85,85,85,85,85,85,85,85,85,85,85,85,85,85,1,
1,85,85,85,85,85,85,85,85,85,85,85,85,1,0,0,0,0,0,0,0,0,0,0,0,0,0,0,0,0,0,0,0,0,1,85,85,85,86,341,341,341,341,341,341,341,596,597,597,597,597,597,597,597,597,597,597,33,34,35,36,37,38,39,597,597,597,597,597,597,597,597,597,598,341,341,341,341,341,341,84,85,85,85,85,85,85,85,85,85,85,85,85,85,85,85,85,85,85,85,85,85,85,85,85,85,85,85,85,85,85,85,85,85,85,85,85,85,85,1,
1,85,85,85,85,85,85,85,85,85,85,85,85,1,0,0,0,0,0,0,0,0,0,0,0,0,0,0,0,0,0,0,0,0,1,85,85,85,132,69,70,341,341,341,341,341,596,597,597,597,597,597,597,597,597,597,597,40,41,42,43,44,45,46,597,597,597,597,597,597,597,597,597,598,341,341,341,341,341,341,84,85,85,85,85,85,85,85,85,85,85,85,85,85,85,85,85,85,85,85,85,85,85,85,85,85,85,85,85,85,85,85,85,85,85,85,85,85,85,1,
1,885,886,887,888,889,890,891,85,85,85,85,85,1,0,0,0,0,0,0,0,0,0,0,0,0,0,0,0,0,0,0,0,0,1,85,85,85,85,85,132,69,70,341,341,341,596,597,597,597,597,597,597,597,597,597,597,47,48,49,50,51,52,53,597,597,597,597,597,597,597,597,597,598,341,341,341,341,341,68,133,85,85,85,85,1,1,1,1,1,1,1,1,1,1,1,1,1,1,1,1,1,1,1,85,85,85,85,85,85,85,85,836,837,838,839,840,841,842,1,
1,892,893,894,895,896,897,898,85,85,85,85,85,1,0,0,0,0,0,0,0,0,0,0,0,0,0,0,0,0,0,0,0,0,1,85,85,85,116,101,101,101,102,341,341,341,612,1610613381,597,597,597,597,597,597,597,597,597,54,55,56,57,58,59,60,597,597,597,597,597,597,597,597,597,598,341,341,341,341,341,84,85,85,85,85,85,1,0,0,0,0,0,0,0,0,0,0,0,0,0,0,0,0,0,1,85,85,85,85,85,85,85,85,843,844,845,846,847,848,849,1,
1,899,900,901,902,903,904,905,85,85,85,85,85,1,0,0,0,0,0,0,0,0,0,0,0,0,0,0,0,0,0,0,0,0,1,85,85,85,86,341,341,341,341,341,341,341,341,3221226070,597,597,597,597,597,597,597,597,597,61,62,63,64,65,66,67,597,597,597,597,597,597,597,597,597,598,341,341,341,341,341,84,85,85,85,85,85,1,0,0,0,0,0,0,0,0,0,0,0,0,0,0,0,0,0,1,85,85,85,85,85,85,85,85,850,851,852,853,854,855,856,1,
1,906,907,908,909,910,911,912,85,85,85,85,85,1,0,0,0,0,0,0,0,0,0,0,0,0,0,0,0,0,0,0,0,0,1,85,85,85,86,341,341,341,341,341,341,341,341,3221226070,597,597,597,597,597,597,597,597,597,597,597,597,597,597,597,597,597,597,597,597,597,597,597,597,597,598,341,341,341,68,69,133,85,85,85,85,85,1,0,0,0,0,0,0,0,0,0,0,0,0,0,0,0,0,0,1,85,85,85,85,85,85,85,85,857,858,859,860,861,862,863,1,
1,913,914,915,916,917,918,919,85,85,85,85,85,1,0,0,0,0,0,0,0,0,0,0,0,0,0,0,0,0,0,0,0,0,1,85,85,85,132,70,341,341,341,341,341,341,341,3221226070,597,597,597,597,597,597,597,597,597,597,597,597,597,597,597,597,597,597,597,597,597,597,597,597,597,598,341,341,341,84,85,85,85,85,85,85,85,1,0,0,0,0,0,0,0,0,0,0,0,0,0,0,0,0,0,1,85,85,85,85,85,85,85,85,864,865,866,867,868,869,870,1,
1,920,921,922,923,924,925,926,85,85,85,85,85,1,1,1,1,1,1,1,1,1,1,1,1,1,1,1,1,1,1,1,1,1,1,85,85,85,85,132,70,341,341,341,341,341,341,3221226070,597,597,597,597,597,597,597,597,597,597,597,597,597,597,597,597,597,597,597,597,597,597,597,597,597,598,341,341,341,84,85,85,85,85,85,85,85,1,0,0,0,0,0,0,0,0,0,0,0,0,0,0,0,0,0,1,85,85,85,85,85,85,85,85,871,872,873,874,875,876,877,1,
1,927,928,929,930,931,932,933,85,85,85,85,85,85,85,85,85,85,85,85,85,85,85,85,85,85,85,85,85,85,85,85,85,85,85,85,85,85,85,85,86,341,341,341,341,341,580,645,597,597,597,597,597,597,597,597,597,597,597,597,597,597,597,597,597,597,597,597,597,597,597,597,597,598,341,341,341,84,116,101,117,85,85,85,85,1,0,0,0,0,0,0,0,0,0,0,0,0,0,0,0,0,0,1,85,85,85,85,85,85,85,85,878,879,880,881,882,883,884,1,
1,85,85,85,85,85,85,85,85,85,85,85,85,85,85,85,85,85,85,85,85,85,85,85,85,85,85,85,85,85,85,85,85,85,85,85,85,85,85,85,132,123,106,341,341,341,596,597,597,597,597,597,597,597,597,597,597,597,597,597,597,597,597,597,597,597,597,597,597,597,597,597,597,598,341,341,341,136,102,341,84,85,85,85,85,1,0,0,0,0,0,0,0,0,0,0,0,0,0,0,0,0,0,1,85,85,85,85,85,85,85,85,85,85,85,85,85,85,85,1,
1,85,85,85,85,85,85,85,85,85,85,85,85,85,85,85,85,85,85,85,85,85,85,85,85,85,85,85,85,85,85,85,85,85,85,85,85,85,85,85,116,102,341,341,341,341,596,597,597,597,597,597,597,597,597,597,597,597,597,597,597,597,597,597,597,597,597,597,597,597,597,597,597,598,341,341,341,103,341,341,84,85,85,85,85,1,0,0,0,0,0,0,0,0,0,0,0,0,0,0,0,0,0,1,85,85,85,85,85,85,85,85,85,85,85,85,85,85,85,1,
1,85,85,85,85,85,85,85,85,85,85,85,85,85,85,85,85,85,85,85,85,85,85,85,85,85,85,85,85,85,85,85,85,85,85,85,85,85,85,85,86,341,341,341,341,341,612,1610613381,597,597,597,597,597,597,597,597,597,597,597,597,597,597,597,597,597,597,597,597,597,597,597,597,597,598,341,341,341,341,341,68,133,85,85,85,85,1,0,0,0,0,0,0,0,0,0,0,0,0,0,0,0,0,0,1,85,85,85,85,85,85,85,85,85,85,85,85,85,85,85,1,
1,85,85,85,85,85,85,85,85,85,85,85,85,85,85,85,85,85,85,85,85,85,85,85,85,85,85,85,85,85,85,85,85,85,85,85,85,85,85,85,86,341,341,341,341,341,341,612,1610613381,597,597,597,597,597,597,597,597,597,597,597,597,597,597,597,597,597,597,597,597,597,597,3221226117,2684355158,614,341,341,341,341,341,84,85,85,85,85,85,1,0,0,0,0,0,0,0,0,0,0,0,0,0,0,0,0,0,1,85,85,85,85,85,85,85,85,85,85,85,85,85,85,85,1,
1,85,85,85,85,85,85,85,85,85,85,85,85,85,85,85,85,85,85,85,85,85,85,85,85,85,85,85,85,85,85,85,85,85,85,85,85,85,85,85,132,69,69,70,341,341,341,341,612,1610613381,597,597,597,597,597,597,597,597,597,597,597,597,597,597,597,597,597,597,597,3221226117,2684355158,614,341,341,341,341,341,341,68,133,85,85,85,85,85,1,0,0,0,0,0,0,0,0,0,0,0,0,0,0,0,0,0,1,85,85,85,85,85,85,85,85,85,85,85,85,85,85,85,1,
1,85,85,85,85,85,85,85,85,85,85,85,85,85,85,85,85,85,85,85,85,85,85,85,85,85,85,85,85,85,85,85,85,85,85,85,85,85,85,85,85,85,85,86,341,341,341,341,341,612,1610613381,597,597,597,597,597,597,597,597,597,597,597,597,597,597,597,597,597,3221226117,614,341,341,341,341,341,341,341,68,133,85,85,85,85,85,85,1,0,0,0,0,0,0,0,0,0,0,0,0,0,0,0,0,0,1,85,85,85,85,85,85,85,85,85,85,85,85,85,85,85,1,
1,85,85,85,85,85,85,85,85,85,85,85,85,85,85,85,85,85,85,85,85,85,85,85,85,85,85,85,85,85,85,85,85,85,85,85,85,85,85,85,85,85,85,132,70,341,341,341,341,341,612,1610613381,597,597,597,597,597,597,597,597,597,597,597,597,597,3221226117,2684355158,2684355158,614,341,341,341,341,341,341,341,341,84,85,85,85,85,85,85,85,1,0,0,0,0,0,0,0,0,0,0,0,0,0,0,0,0,0,1,85,85,85,85,85,85,85,85,85,85,85,85,85,85,85,1,
1,85,85,85,85,85,85,85,85,85,85,85,85,85,85,85,85,85,85,85,85,85,85,85,85,85,85,85,85,85,85,85,85,85,85,85,85,85,85,85,85,85,85,85,86,341,341,341,341,341,341,612,2684355158,1610613381,597,597,597,3221226117,613,613,613,613,613,613,613,614,341,341,341,341,341,341,341,341,341,341,341,84,85,85,85,85,85,85,85,1,1,1,1,1,1,1,1,1,1,1,1,1,1,1,1,1,1,1,85,85,85,85,85,85,85,85,85,85,85,85,85,85,85,1,
1,85,85,85,85,85,85,85,85,85,85,85,85,85,85,85,85,85,85,85,85,85,85,85,85,85,85,85,85,85,85,85,85,85,85,85,85,85,85,85,85,85,85,85,86,341,341,341,341,341,341,341,341,612,613,613,613,614,341,341,341,341,341,341,341,341,341,341,341,341,341,341,341,341,71,341,341,84,85,85,85,85,85,85,85,85,85,85,85,85,85,85,85,85,85,85,85,85,85,85,85,85,85,85,85,85,85,85,85,85,85,85,85,85,85,85,85,85,85,1,
1,85,85,85,85,85,85,85,85,85,85,85,85,85,85,85,85,85,85,85,85,85,85,85,85,85,85,85,85,85,85,85,85,85,85,85,85,85,85,85,85,85,85,85,132,70,341,341,341,341,341,341,341,341,341,341,341,341,341,341,341,341,341,341,341,341,341,341,341,341,341,341,341,341,122,69,69,133,85,85,85,85,85,85,85,85,85,85,85,85,85,85,85,85,85,85,85,85,85,85,85,85,85,85,85,85,85,85,85,85,85,85,85,85,85,85,85,85,85,1,
1,85,85,85,85,85,85,85,85,85,85,85,85,85,85,85,85,85,85,85,85,85,85,85,85,85,85,85,85,85,85,85,85,85,85,85,85,85,85,85,85,85,85,85,85,86,341,341,341,341,341,341,341,341,341,341,341,341,341,341,341,341,341,341,341,341,341,341,341,341,341,341,341,341,84,85,85,85,85,85,85,85,85,85,85,85,85,85,85,85,85,85,85,85,85,85,85,85,85,85,85,85,85,85,85,85,85,85,85,85,85,85,85,85,85,85,85,85,85,1,
1,85,85,85,85,85,85,85,85,85,85,85,85,85,85,85,85,85,85,85,85,85,85,85,85,85,85,85,85,85,85,85,85,85,85,85,85,85,85,85,85,85,85,85,85,132,69,69,69,69,70,341,341,341,341,341,341,341,341,341,341,341,341,341,71,341,341,341,341,341,341,68,69,69,133,85,85,85,85,85,85,85,85,85,85,85,85,85,85,85,85,85,85,85,85,85,85,85,85,85,85,85,85,85,85,85,85,85,85,85,85,85,85,85,85,85,85,85,85,1,
1,85,85,85,85,85,85,85,85,85,85,85,85,85,85,85,85,85,85,85,85,85,85,85,85,85,85,85,85,85,85,85,85,85,85,85,85,85,85,85,85,85,85,85,85,85,85,85,85,85,86,341,341,341,341,341,341,341,341,341,68,69,69,69,134,69,70,341,341,341,68,133,85,85,85,85,85,85,85,85,85,85,85,85,85,85,85,85,85,85,116,101,101,101,101,101,101,117,85,85,85,85,85,85,85,85,85,85,85,85,85,85,85,85,85,85,85,85,85,1,
1,85,85,85,85,85,85,85,85,85,85,85,85,85,85,85,85,85,85,85,85,85,85,85,85,85,85,85,85,85,85,85,85,85,85,85,85,85,85,85,85,85,85,85,85,85,85,85,85,85,132,69,69,70,341,341,341,68,69,69,133,85,85,85,85,85,132,69,69,69,133,85,85,85,85,85,85,85,85,85,85,85,85,85,85,85,85,85,85,116,102,341,341,341,341,341,341,100,101,101,101,117,85,85,85,85,85,85,85,85,85,85,85,85,85,85,85,85,85,1,
1,85,85,85,85,85,85,85,85,85,85,85,85,85,85,85,85,85,85,85,85,85,85,85,85,85,85,85,85,85,85,85,85,85,85,85,85,85,85,85,85,85,85,85,85,85,85,85,85,85,85,85,85,132,69,69,69,133,85,85,85,85,85,85,85,85,85,85,85,85,85,85,85,85,85,85,85,85,85,85,85,85,85,85,85,85,85,116,101,102,341,341,341,341,341,341,341,341,341,341,341,100,101,117,85,85,85,85,85,85,85,85,85,85,85,85,85,85,85,1,
1,85,85,85,85,85,85,85,85,85,85,85,85,85,85,85,85,85,85,85,85,85,85,85,85,85,85,85,85,85,85,85,85,85,85,85,85,85,85,85,85,85,85,85,85,85,85,85,85,85,85,85,85,85,85,85,85,85,85,85,85,85,85,85,85,85,85,85,85,85,85,85,85,85,85,85,85,85,85,85,85,85,85,85,85,116,101,102,341,341,341,341,341,341,341,341,341,341,341,341,341,341,341,100,117,85,85,85,85,85,85,85,85,85,85,85,85,85,85,1,
1,85,85,85,85,85,85,85,85,85,85,85,85,85,85,85,85,85,85,85,85,85,85,85,85,85,85,85,85,85,85,85,85,85,85,85,85,85,85,85,85,85,85,85,85,85,85,85,85,85,85,85,85,85,85,85,85,85,85,85,85,85,85,85,85,85,85,85,85,85,85,85,85,85,85,85,85,85,85,85,85,85,116,101,101,102,341,341,341,341,341,341,341,341,341,580,581,581,581,582,341,341,341,341,100,117,85,85,85,85,85,85,85,85,85,85,85,85,85,1,
1,85,85,85,85,85,85,85,85,85,85,85,85,85,85,85,85,85,85,85,85,85,85,85,85,85,85,85,85,85,85,85,85,85,85,85,85,85,85,85,85,85,85,85,85,85,85,85,85,85,85,85,85,85,85,85,85,85,85,85,85,85,85,85,85,85,85,85,85,85,85,85,85,85,85,85,85,85,85,85,85,116,102,341,341,341,341,341,341,341,341,580,581,581,581,2684355189,597,597,597,3221226101,581,582,341,341,341,100,117,85,85,85,85,85,85,85,85,85,85,85,85,1,
1,85,85,85,85,85,85,85,85,85,85,85,85,85,85,85,85,85,85,85,85,85,85,85,85,85,85,85,85,85,85,85,85,85,85,85,85,85,85,85,85,85,85,85,85,85,85,85,85,85,85,85,85,85,85,85,85,85,85,85,85,85,85,85,85,85,85,85,85,85,85,85,85,85,85,85,85,85,85,85,116,102,341,341,341,341,341,341,341,580,581,2684355189,597,597,597,597,597,597,597,597,597,598,341,341,341,341,84,85,85,85,85,85,85,85,85,85,85,85,85,1,
1,85,85,85,85,85,85,85,85,85,85,85,85,85,85,85,85,85,85,85,116,101,101,101,117,85,85,85,85,85,85,85,85,85,85,85,85,85,85,85,85,85,85,85,85,85,85,85,85,85,85,85,85,85,85,85,85,85,85,85,85,85,85,85,85,85,85,85,85,85,85,85,85,85,85,85,85,85,85,116,102,341,341,341,341,341,341,580,581,2684355189,597,597,597,597,597,597,597,597,597,597,597,3221226101,582,341,341,341,100,117,85,85,85,85,85,85,85,85,85,85,85,1,
1,85,85,85,85,85,85,85,85,85,85,85,85,85,85,85,85,85,85,116,102,341,341,341,84,85,85,85,85,85,85,85,85,85,85,85,85,85,85,85,85,85,85,85,1,1,1,1,1,1,1,1,1,1,1,1,1,1,1,1,1,1,1,1,1,1,1,1,1,1,1,1,1,1,1,85,85,85,116,102,341,341,341,341,580,581,581,2684355189,597,597,597,597,597,597,597,597,597,597,597,597,597,597,598,341,341,341,341,100,117,85,85,85,85,85,85,85,85,85,85,1,
1,85,85,85,85,85,85,85,85,85,85,85,85,85,85,116,101,101,101,102,341,341,341,341,100,101,117,85,85,85,85,85,85,85,85,85,85,85,85,85,85,85,85,85,1,0,0,0,0,0,0,0,0,0,0,0,0,0,0,0,0,0,0,0,0,0,0,0,0,0,0,0,0,0,1,85,85,85,86,341,341,341,341,580,2684355189,597,597,597,597,597,597,597,597,597,597,597,597,597,597,597,597,597,3221226101,582,341,341,341,341,84,85,85,85,85,85,85,85,85,85,85,1,
1,85,85,85,85,85,85,85,85,85,85,85,85,85,85,86,341,341,341,341,341,341,341,341,341,341,100,101,117,85,85,85,85,85,85,85,85,85,85,85,85,85,85,85,1,0,0,0,0,0,0,0,0,0,0,0,0,0,0,0,0,0,0,0,0,0,0,0,0,0,0,0,0,0,1,85,85,116,102,341,341,580,581,2684355189,597,597,597,597,597,597,597,597,597,597,597,597,597,597,597,597,597,597,597,598,341,341,341,341,84,85,85,85,85,85,85,85,85,85,85,1,
1,85,85,85,85,85,85,85,85,85,85,85,85,116,101,137,106,341,341,341,341,341,341,341,341,341,341,341,100,101,101,117,85,85,85,85,85,85,85,85,85,85,85,85,1,0,0,0,0,0,0,0,0,0,0,0,0,0,0,0,0,0,0,0,0,0,0,0,0,0,0,0,0,0,1,85,116,102,341,341,341,3221226070,597,597,597,597,597,597,597,597,597,597,597,597,597,597,597,597,597,597,597,597,597,3221226101,582,341,341,341,100,117,85,85,85,85,85,85,85,85,85,1,
1,85,85,85,85,85,85,85,85,85,85,85,85,86,341,341,341,341,341,341,341,341,341,341,341,341,341,341,341,341,341,100,101,117,85,85,85,85,85,85,85,85,85,85,1,0,0,0,0,0,0,0,0,0,0,0,0,0,0,0,0,0,0,0,0,0,0,0,0,0,0,0,0,0,1,85,86,341,341,341,580,2684355189,597,597,597,597,597,597,597,597,597,597,597,597,597,597,597,597,597,597,597,597,597,597,3221226101,582,341,341,341,84,85,85,85,85,85,85,85,85,85,1,
1,85,85,85,85,85,85,85,85,85,85,85,116,102,341,341,341,341,341,341,341,341,341,341,341,341,341,341,341,341,341,341,341,84,85,85,85,85,85,85,85,85,85,85,1,0,0,0,0,0,0,0,0,0,0,0,0,0,0,0,0,0,0,0,0,0,0,0,0,0,0,0,0,0,1,85,86,341,341,341,596,597,597,597,597,597,597,597,597,597,597,597,597,597,597,597,597,597,597,597,597,597,597,597,597,598,341,341,341,84,85,85,85,85,85,85,85,85,85,1,
1,85,85,85,85,85,85,85,85,85,85,116,102,341,341,341,580,581,581,581,581,581,581,581,581,581,581,581,582,341,341,341,341,100,117,85,85,85,85,85,85,85,85,85,1,0,0,0,0,0,0,0,0,0,0,0,0,0,0,0,0,0,0,0,0,0,0,0,0,0,0,0,0,0,1,85,86,341,341,580,2684355189,597,597,597,597,597,597,597,597,597,597,597,597,597,597,597,597,597,597,597,597,597,597,597,597,598,341,341,341,100,117,85,85,85,85,85,85,85,85,1,
1,85,85,85,85,85,85,85,85,85,116,102,341,341,341,341,3221226070,597,597,597,597,597,597,597,597,597,597,597,598,341,341,341,341,341,84,85,85,85,85,85,85,85,85,85,1,0,0,0,0,0,0,0,0,0,0,0,0,0,0,0,0,0,0,0,0,0,0,0,0,0,0,0,0,0,1,85,86,341,341,596,597,597,597,597,597,597,597,597,597,597,597,597,597,597,597,597,597,597,597,597,597,597,597,597,597,598,341,341,341,341,84,85,85,85,85,85,85,85,85,1,
1,85,85,85,85,85,85,85,85,116,102,341,341,341,580,1610613334,2684355189,597,597,597,597,597,597,597,597,597,597,597,598,341,341,341,341,341,84,85,85,85,85,85,85,85,85,85,1,0,0,0,0,0,0,0,0,0,0,0,0,0,0,0,0,0,0,0,0,0,0,0,0,0,0,0,0,0,1,85,86,341,341,612,629,597,597,597,597,597,597,597,597,597,597,597,597,597,597,597,597,597,597,597,597,597,597,597,597,598,341,341,341,341,84,85,85,85,85,85,85,85,85,1,
1,85,85,85,85,85,85,85,85,86,341,341,341,341,596,597,597,597,597,597,597,597,597,597,597,597,597,1610613365,614,341,341,341,341,341,100,117,85,85,85,85,85,85,85,85,1,0,0,0,0,0,0,0,0,0,0,0,0,0,0,0,0,0,0,0,0,0,0,0,0,0,0,0,0,0,1,85,86,341,341,341,596,597,597,597,597,597,597,597,597,597,597,597,597,597,597,597,597,597,597,597,597,597,597,597,597,598,341,341,341,341,84,85,85,85,85,85,85,85,85,1,
1,85,85,85,85,85,85,85,85,86,341,341,341,341,596,597,597,597,597,597,597,597,597,597,597,597,597,598,341,341,341,341,341,341,341,84,85,85,85,85,85,85,85,85,1,0,0,0,0,0,0,0,0,0,0,0,0,0,0,0,0,0,0,0,0,0,0,0,0,0,0,0,0,0,1,85,86,341,341,341,596,597,597,597,597,597,597,597,597,597,597,597,597,597,597,597,597,597,597,597,597,597,597,597,597,598,341,341,341,341,84,85,85,85,85,85,85,85,85,1,
1,85,85,85,85,85,85,85,85,86,341,341,341,341,612,629,597,597,597,597,597,597,597,597,597,597,597,598,341,341,341,341,341,341,341,84,85,85,85,85,85,85,85,85,1,0,0,0,0,0,0,0,0,0,0,0,0,0,0,0,0,0,0,0,0,0,0,0,0,0,0,0,0,0,1,85,86,341,341,341,612,629,597,597,597,597,597,597,597,597,597,597,597,597,597,597,597,597,597,597,597,597,597,597,597,598,341,341,341,341,84,85,85,85,85,85,85,85,85,1,
1,85,85,85,85,85,85,85,116,102,341,341,341,341,341,596,597,597,597,597,597,597,597,597,597,597,597,598,341,341,341,341,341,341,341,84,85,85,85,85,85,85,85,85,1,0,0,0,0,0,0,0,0,0,0,0,0,0,0,0,0,0,0,0,0,0,0,0,0,0,0,0,0,0,1,85,86,341,341,341,341,596,597,597,597,597,597,597,597,597,597,597,597,597,597,597,597,597,597,597,597,597,597,597,597,598,341,341,341,341,84,85,85,85,85,85,85,85,85,1,
1,85,85,85,85,85,85,85,86,341,341,341,341,341,341,596,597,597,597,597,597,597,597,597,597,597,597,3221226101,582,341,341,341,341,341,341,84,85,85,85,85,85,85,85,85,1,0,0,0,0,0,0,0,0,0,0,0,0,0,0,0,0,0,0,0,0,0,0,0,0,0,0,0,0,0,1,85,132,70,341,341,341,612,629,597,597,597,597,597,597,597,597,597,597,597,597,597,597,597,597,597,597,597,597,597,597,598,341,341,341,341,84,85,85,85,85,85,85,85,85,1,
1,85,85,85,85,85,85,85,86,341,341,341,341,341,341,596,597,597,597,597,597,597,597,597,597,597,597,597,598,341,341,341,341,341,341,84,85,85,85,85,85,85,85,85,1,0,0,0,0,0,0,0,0,0,0,0,0,0,0,0,0,0,0,0,0,0,0,0,0,0,0,0,0,0,1,85,85,132,70,341,341,341,612,629,597,597,597,597,597,597,597,597,597,597,597,597,597,597,597,597,597,597,597,597,597,3221226101,582,341,341,341,84,85,85,85,85,85,85,85,85,1,
1,85,85,85,85,85,85,85,86,341,341,341,341,341,580,2684355189,597,597,597,597,597,597,597,597,597,597,597,597,598,341,341,341,341,341,68,133,85,85,85,85,85,85,85,85,1,0,0,0,0,0,0,0,0,0,0,0,0,0,0,0,0,0,0,0,0,0,0,0,0,0,0,0,0,0,1,85,85,85,132,70,341,341,341,3221226070,597,597,597,597,597,597,597,597,597,597,597,597,597,597,597,597,597,597,597,597,597,1610613365,614,341,341,341,84,85,85,85,85,85,85,85,85,1,
1,85,85,85,85,85,85,85,132,70,341,341,341,341,596,597,597,597,597,597,597,597,597,597,597,597,597,597,598,341,341,341,341,341,84,85,85,85,85,85,85,85,85,85,1,0,0,0,0,0,0,0,0,0,0,0,0,0,0,0,0,0,0,0,0,0,0,0,0,0,0,0,0,0,1,85,85,85,85,86,341,341,341,612,629,597,597,597,597,597,597,597,597,597,597,597,597,597,597,597,597,597,597,597,1610613365,614,341,341,341,341,84,85,85,85,85,85,85,85,85,1,
1,85,85,85,85,85,85,85,85,86,341,341,341,341,612,629,597,597,597,597,597,597,597,597,597,597,597,597,598,341,341,341,341,68,133,85,85,85,85,85,85,85,85,85,1,0,0,0,0,0,0,0,0,0,0,0,0,0,0,0,0,0,0,0,0,0,0,0,0,0,0,0,0,0,1,85,85,85,85,132,70,341,341,341,612,629,597,597,597,597,597,597,597,597,597,597,597,597,597,597,597,1610613365,613,613,614,341,341,341,341,68,133,85,85,85,85,85,85,85,85,1,
1,85,85,85,85,85,85,85,85,132,70,341,341,341,341,612,613,613,613,613,613,613,613,613,613,613,613,613,614,341,341,341,341,84,85,85,85,85,85,85,85,85,85,85,1,0,0,0,0,0,0,0,0,0,0,0,0,0,0,0,0,0,0,0,0,0,0,0,0,0,0,0,0,0,1,85,85,85,85,85,132,70,341,341,341,612,629,597,597,597,597,597,597,597,597,597,597,1610613365,613,613,613,614,341,341,341,341,341,341,341,84,85,85,85,85,85,85,85,85,85,1,
1,85,85,85,85,85,85,85,85,85,86,341,341,341,341,341,341,341,341,341,341,341,341,341,341,341,341,341,341,341,341,341,341,84,85,85,85,85,85,85,85,85,85,85,1,0,0,0,0,0,0,0,0,0,0,0,0,0,0,0,0,0,0,0,0,0,0,0,0,0,0,0,0,0,1,85,85,85,85,85,85,86,341,341,341,341,612,613,629,597,1610613365,613,613,613,613,613,613,614,341,341,341,341,341,341,341,341,68,69,69,133,85,85,85,85,85,85,85,85,85,1,
1,85,85,85,85,85,85,85,85,85,86,341,341,341,341,341,341,341,341,341,341,341,341,341,341,341,341,341,341,341,341,341,341,84,85,85,85,85,85,85,85,85,85,85,1,0,0,0,0,0,0,0,0,0,0,0,0,0,0,0,0,0,0,0,0,0,0,0,0,0,0,0,0,0,1,85,85,85,85,85,85,132,70,341,341,341,341,341,612,613,614,341,341,341,341,341,341,341,341,341,341,341,341,341,68,69,133,85,85,85,85,85,85,85,85,85,85,85,85,1,
1,85,85,85,85,85,85,85,85,85,132,70,341,341,341,341,341,341,341,341,341,341,341,341,341,341,341,341,341,341,341,341,68,133,85,85,85,85,85,85,85,85,85,85,1,0,0,0,0,0,0,0,0,0,0,0,0,0,0,0,0,0,0,0,0,0,0,0,0,0,0,0,0,0,1,85,85,85,85,85,85,85,86,341,341,341,341,341,341,341,341,341,341,341,341,341,341,341,341,341,341,341,68,69,133,85,85,85,85,85,85,85,85,85,85,85,85,85,85,1,
1,85,85,85,85,85,85,85,85,85,85,132,70,341,341,341,341,341,341,341,341,341,341,341,341,341,341,341,68,69,69,69,133,85,85,85,85,85,85,85,85,85,85,85,1,1,1,1,1,1,1,1,1,1,1,1,1,1,1,1,1,1,1,1,1,1,1,1,1,1,1,1,1,1,1,85,85,85,85,85,85,85,132,69,69,69,70,341,341,341,341,341,341,341,341,341,341,341,341,341,68,69,133,85,85,85,85,85,85,85,85,85,85,85,85,85,85,85,85,1,
1,85,85,85,85,85,85,85,85,85,85,85,132,69,69,69,69,70,341,341,341,341,341,341,341,341,68,69,133,85,85,85,85,85,85,85,85,85,85,85,85,85,85,85,85,85,85,85,85,85,85,85,85,85,85,85,85,85,85,85,85,85,85,85,85,85,85,85,85,85,85,85,85,85,85,85,85,85,85,85,85,85,85,85,85,85,132,69,69,69,69,69,69,69,69,69,69,69,69,69,133,85,85,85,85,85,85,85,85,85,85,85,85,85,85,85,85,85,85,1,
1,85,85,85,85,85,85,85,85,85,85,85,85,85,85,85,85,132,69,69,69,69,69,69,69,69,133,85,85,85,85,85,85,85,85,85,85,85,85,85,85,85,85,85,85,85,85,85,85,85,85,85,85,85,85,85,85,85,85,85,85,85,85,85,85,85,85,85,85,85,85,85,85,85,85,85,85,85,85,85,85,85,85,85,85,85,85,85,85,85,85,85,85,85,85,85,85,85,85,85,85,85,85,85,85,85,85,85,85,85,85,85,85,85,85,85,85,85,85,1,
1,1,1,1,1,1,1,1,1,1,1,1,1,1,1,1,1,1,1,1,1,1,1,1,1,1,1,1,1,1,1,1,1,1,1,1,1,1,1,1,1,1,1,1,1,1,1,1,1,1,1,1,1,1,1,1,1,1,1,1,1,1,1,1,1,1,1,1,1,1,1,1,1,1,1,1,1,1,1,1,1,1,1,1,1,1,1,1,1,1,1,1,1,1,1,1,1,1,1,1,1,1,1,1,1,1,1,1,1,1,1,1,1,1,1,1,1,1,1,1
</data>
 </layer>
 <objectgroup id="10" name="Collision_General">
  <object id="75" name="Collision" type="Collision" x="0" y="0" width="32" height="3072"/>
  <object id="76" name="Collision" type="Collision" x="0" y="3040" width="3840" height="32"/>
  <object id="77" name="Collision" type="Collision" x="0" y="0" width="3840" height="32"/>
  <object id="78" name="Collision" type="Collision" x="3808" y="0" width="32" height="3072"/>
 </objectgroup>
 <objectgroup id="9" name="Collision_Haute">
  <object id="65" name="Collision" x="1632" y="1088">
   <polygon points="0,0 160,0 160,32 256,32 256,0 640,0 640,160 608,160 608,192 576,192 576,320 576,288 608,288 608,384 640,384 640,608 640,640 544,640 544,576 576,576 576,544 416,544 416,576 448,576 448,640 320,640 288,640 288,512 320,512 320,480 160,480 160,544 224,544 224,640 0,640 0,608 -32,608 -32,512 -32,480 32,480 0,480 0,416 -32,416 -32,320 0,320 0,160 32,160 32,96 0,96"/>
  </object>
  <object id="66" name="Collision" x="352" y="576">
   <polygon points="0,0 128,0 128,-64 64,-64 64,-96 0,-96 0,-256 96,-256 96,-224 160,-224 160,-256 256,-256 256,-224 320,-224 320,-256 416,-256 416,-160 384,-160 384,-128 352,-128 352,-96 384,-96 384,-64 416,-64 416,96 256,96 256,64 192,64 192,96 160,96 160,128 32,128 32,96 0,96"/>
  </object>
  <object id="67" name="Collision" x="2848" y="2368">
   <polygon points="0,0 160,0 160,32 224,32 224,0 416,0 416,96 352,96 352,192 416,192 416,352 320,352 320,320 256,320 256,352 160,352 160,320 96,320 96,352 0,352 0,256 32,256 32,224 64,224 64,192 32,192 32,160 0,160"/>
  </object>
  <object id="68" name="Collision" x="544" y="2464">
   <polygon points="0,0 96,0 96,32 224,32 224,0 352,0 352,96 288,96 288,192 352,192 352,256 320,256 320,288 352,288 352,352 256,352 256,320 192,320 192,352 96,352 96,320 32,320 32,352 -64,352 -64,320 -64,256 -32,256 -32,256 -32,224 0,224 0,192 -32,192 -32,160 -64,160 -64,64 0,64"/>
  </object>
  <object id="69" name="Collision" x="2944" y="224">
   <polygon points="0,0 448,0 448,384 448,416 0,416"/>
  </object>
  <object id="70" name="Eau_peu_profonde" x="2784" y="224">
   <polygon points="0,0 32,0 32,-32 64,-32 64,-64 128,-64 128,-96 224,-96 224,-128 576,-128 576,-96 640,-96 640,-64 704,-64 704,96 736,96 736,256 768,256 768,448 736,448 736,512 672,512 672,544 544,544 544,576 320,576 320,608 224,608 224,576 128,576 128,512 96,512 96,448 64,448 64,384 32,384 32,224 0,224"/>
  </object>
  <object id="71" name="Eau_peu_profonde" x="352" y="256" visible="0">
   <polygon points="0,0 0,32 -64,32 -64,96 -96,96 -96,256 -64,256 -64,416 -32,416 -32,480 0,480 0,512 320,512 320,480 416,480 416,448 448,448 448,416 480,416 480,160 512,160 512,64 480,64 480,32 384,32 384,0"/>
  </object>
  <object id="72" name="Eau_peu_profonde" x="512" y="2432">
   <polygon points="0,0 416,0 416,128 384,128 384,224 416,224 416,416 -32,416 -32,384 -64,384 -64,288 -32,288 -32,192 -64,192 -64,64 0,64"/>
  </object>
  <object id="73" name="Eau_peu_profonde" x="2592" y="2304">
   <polygon points="0,0 64,0 64,-32 96,-32 96,-64 160,-64 192,-64 192,-96 256,-96 256,-128 320,-128 320,-160 448,-160 448,-192 608,-192 608,-160 672,-160 672,-96 704,-96 704,-32 736,-32 736,32 768,32 768,64 800,64 800,384 832,384 832,448 800,448 800,480 768,480 768,512 672,512 672,544 544,544 544,576 320,576 320,608 224,608 224,576 160,576 160,544 128,544 128,512 96,512 96,480 64,480 64,416 32,416 32,384 0,384 0,320 -32,320 -32,224 -64,224 -64,128 -32,128 -32,128 -32,64 0,64"/>
  </object>
  <object id="74" name="Eau_peu_profonde" x="1568" y="1024">
   <polygon points="0,0 704,0 704,32 800,32 800,160 832,160 832,256 800,256 800,704 736,704 736,736 672,736 672,768 640,768 640,800 544,800 544,832 288,832 288,864 128,864 128,832 64,832 64,800 32,800 32,768 0,768 0,736 -32,736 -32,704 -64,704 -64,672 -96,672 -96,544 -64,544 -64,416 -96,416 -96,256 -64,256 -64,160 -32,160 -32,32 0,32 0,0"/>
  </object>
 </objectgroup>
 <objectgroup id="6" name="Collision_Basse">
  <object id="12" name="Collision" x="416" y="992" width="32" height="576"/>
  <object id="14" name="Collision" x="416" y="992" width="704" height="32"/>
  <object id="15" name="Collision" x="1088" y="992" width="32" height="576"/>
  <object id="16" name="Collision" x="416" y="1536" width="704" height="32"/>
  <object id="17" name="Collision" x="1216" y="32" width="32" height="768"/>
  <object id="18" name="Collision" x="1216" y="32" width="1312" height="32"/>
  <object id="19" name="Collision" x="2496" y="32" width="32" height="768"/>
  <object id="20" name="Collision" x="1216" y="768" width="1312" height="32"/>
  <object id="21" name="Collision" x="2720" y="1376" width="608" height="32"/>
  <object id="22" name="Collision" x="2720" y="1376" width="32" height="480"/>
  <object id="23" name="Collision" x="3296" y="1376" width="32" height="480"/>
  <object id="24" name="Collision" x="2720" y="1824" width="608" height="32"/>
  <object id="25" name="Collision" x="1408" y="2240" width="32" height="736"/>
  <object id="26" name="Collision" x="1408" y="2240" width="992" height="32"/>
  <object id="29" name="Collision" x="2368" y="2240" width="32" height="736"/>
  <object id="30" name="Collision" x="1408" y="2944" width="992" height="32"/>
  <object id="48" name="Eau_peu_profonde" x="416" y="128">
   <polygon points="0,0 160,0 160,32 256,32 256,64 416,64 416,96 448,96 448,128 480,128 480,192 512,192 512,224 544,224 544,352 576,352 576,512 544,512 544,608 512,608 512,640 480,640 480,672 448,672 448,704 352,704 352,736 224,736 224,768 96,768 96,736 0,736 0,704 -96,704 -96,672 -128,672 -128,640 -192,640 -192,608 -256,608 -256,256 -224,256 -224,192 -192,192 -192,160 -160,160 -160,128 -128,128 -128,96 -96,96 -96,64 -64,64 -64,32 0,32"/>
  </object>
  <object id="49" name="Eau_peu_profonde" x="672" y="2240">
   <polygon points="0,0 96,0 96,64 160,64 160,96 224,96 224,128 320,128 320,160 384,160 384,224 416,224 416,320 448,320 448,480 416,480 416,544 384,544 384,672 352,672 352,704 224,704 224,736 160,736 160,768 128,768 96,768 96,768 96,768 -32,768 -96,768 -96,736 -256,736 -256,704 -288,704 -288,672 -320,672 -320,576 -352,576 -352,512 -384,512 -384,416 -352,416 -352,288 -320,288 -320,256 -288,256 -288,224 -256,224 -256,192 -224,192 -224,128 -128,128 -128,96 -160,96 -160,64 -32,64 -32,32 0,32"/>
  </object>
  <object id="50" name="Eau_peu_profonde" x="2912" y="2016">
   <polygon points="0,0 192,0 192,32 320,32 320,64 384,64 384,96 416,96 416,128 448,128 448,160 480,160 480,224 512,224 512,256 544,256 544,352 576,352 576,448 608,448 608,768 576,768 576,832 480,832 480,864 416,864 416,896 352,896 352,928 288,928 288,960 -128,960 -128,928 -256,928 -256,864 -288,864 -288,800 -320,800 -320,768 -352,768 -352,704 -384,704 -384,672 -416,672 -416,640 -448,640 -448,352 -416,352 -416,320 -384,320 -384,256 -352,256 -352,224 -320,224 -320,192 -288,192 -288,160 -256,160 -256,128 -160,128 -160,96 -128,96 -96,96 -96,64 -32,64 -32,32 0,32"/>
  </object>
  <object id="52" name="Eau_peu_profonde" x="2688" y="320">
   <polygon points="0,0 -32,0 -32,-96 0,-96 0,-160 32,-160 32,-192 128,-192 128,-224 224,-224 224,-256 768,-256 768,-256 864,-256 864,-224 896,-224 896,-160 928,-160 928,-64 960,-64 960,32 992,32 992,384 960,384 960,448 928,448 928,544 896,544 896,608 864,608 864,640 832,640 832,672 800,672 800,704 288,704 288,640 256,640 256,576 192,576 192,544 128,544 128,512 96,512 96,480 64,480 64,448 32,448 32,416 0,416 0,384 -32,384 -32,192 0,192"/>
  </object>
  <object id="53" name="Eau_peu_profonde" x="1536" y="864">
   <polygon points="0,0 192,0 192,32 224,32 224,64 288,64 288,32 320,32 320,0 352,0 352,64 416,64 416,96 544,96 544,64 576,64 576,0 640,0 640,64 672,64 672,96 768,96 800,96 800,64 864,64 864,128 896,128 896,96 960,96 960,256 992,256 992,352 960,352 960,384 992,384 992,416 1024,416 1024,512 992,512 992,608 928,608 928,800 960,800 960,768 992,768 992,736 1024,736 1024,800 992,800 992,864 960,864 960,896 928,896 928,1024 864,1024 864,992 832,992 832,1088 736,1088 736,1120 704,1120 704,1152 608,1152 608,1120 544,1120 544,1088 512,1088 512,1120 384,1120 384,1152 288,1152 288,1184 192,1184 192,1152 96,1152 96,1120 96,1088 -64,1088 -64,1024 -96,1024 -96,928 -128,928 -128,864 -224,864 -224,800 -192,800 -192,768 -160,768 -160,736 -224,736 -224,672 -256,672 -256,640 -288,640 -288,576 -160,576 -160,512 -224,512 -224,480 -288,480 -288,448 -224,448 -224,416 -192,416 -192,352 -160,352 -160,320 -128,320 -128,224 -96,224 -96,160 -64,160 -64,64 -32,64 -32,32 0,32 0,32 -32,32 0,32"/>
  </object>
  <object id="94" name="Collision" x="2784" y="224">
   <polygon points="0,0 32,0 32,-32 64,-32 64,-64 128,-64 128,-96 224,-96 224,-128 576,-128 576,-96 640,-96 640,-64 704,-64 704,96 736,96 736,256 768,256 768,448 736,448 736,512 672,512 672,544 544,544 544,576 320,576 320,608 224,608 224,576 128,576 128,512 96,512 96,448 64,448 64,384 32,384 32,224 0,224"/>
  </object>
  <object id="95" name="Collision" x="352" y="256">
   <polygon points="0,0 0,32 -64,32 -64,96 -96,96 -96,256 -64,256 -64,416 -32,416 -32,480 0,480 0,512 320,512 320,480 416,480 416,448 448,448 448,416 480,416 480,160 512,160 512,64 480,64 480,32 384,32 384,0"/>
  </object>
  <object id="96" name="Collision" x="512" y="2432">
   <polygon points="0,0 416,0 416,128 384,128 384,224 416,224 416,416 -32,416 -32,384 -64,384 -64,288 -32,288 -32,192 -64,192 -64,64 0,64"/>
  </object>
  <object id="97" name="Collision" x="2592" y="2304">
   <polygon points="0,0 64,0 64,-32 96,-32 96,-64 160,-64 192,-64 192,-96 256,-96 256,-128 320,-128 320,-160 448,-160 448,-192 608,-192 608,-160 672,-160 672,-96 704,-96 704,-32 736,-32 736,32 768,32 768,64 800,64 800,384 832,384 832,448 800,448 800,480 768,480 768,512 672,512 672,544 544,544 544,576 320,576 320,608 224,608 224,576 160,576 160,544 128,544 128,512 96,512 96,480 64,480 64,416 32,416 32,384 0,384 0,320 -32,320 -32,224 -64,224 -64,128 -32,128 -32,128 -32,64 0,64"/>
  </object>
  <object id="99" name="Collision" x="1568" y="1024">
   <polygon points="0,0 0,32 -32,32 -32,160 -64,160 -64,256 -96,256 -96,416 -64,416 -64,544 -96,544 -96,672 -64,672 -64,704 -32,704 -32,736 0,736 0,768 32,768 32,800 64,800 64,832 96,832 128,832 128,864 288,864 288,832 544,832 544,800 640,800 640,768 672,768 672,736 736,736 736,704 800,704 800,256 832,256 832,160 800,160 800,32 704,32 704,0"/>
  </object>
 </objectgroup>
 <objectgroup id="11" name="Objects">
  <object id="79" name="Spawn_base_rouge" type="Base" x="32" y="1408">
   <polygon points="0,0 0,-128 352,-128 352,352 0,352 0,224 224,224 224,0"/>
  </object>
  <object id="81" name="Spawn_base_verte" type="Base" x="3808" y="1376">
   <polygon points="0,0 0,-128 -352,-128 -352,352 0,352 0,224 -224,224 -224,0"/>
  </object>
  <object id="82" name="Base_verte" type="Base" x="3808" y="1600">
   <polygon points="0,0 -224,0 -224,-224 0,-224"/>
  </object>
  <object id="83" name="Base_rouge" type="Base" x="32" y="1632">
   <polygon points="0,0 224,0 224,-224 0,-224 0,0"/>
  </object>
  <object id="84" name="ile_quantique_4" type="ile_quantique" x="1248" y="64" width="1248" height="704"/>
  <object id="85" name="ile_quantique_1" type="ile_quantique" x="448" y="1024" width="640.003" height="512.003"/>
  <object id="86" name="ile_quantique_2" type="ile_quantique" x="1440" y="2272" width="928" height="672"/>
  <object id="87" name="ile_quantique_3" type="ile_quantique" x="2752" y="1408" width="544.005" height="416"/>
  <object id="88" name="spawn" type="spawn" x="1936" y="1365.67">
   <point/>
  </object>
 </objectgroup>
</map>
